M190 S60.000000
M109 S190.000000
;This Gcode has been generated specifically for the LulzBot TAZ 4
;Sliced at: Thu 15-10-2015 11:43:15
;Basic settings: Layer height: 0.21 Walls: 1.05 Fill: 50
;Filament Diameter: 3
;Print time: 18 minutes
;M190 S60 ;Uncomment to add your own bed temperature line
;M109 S190 ;Uncomment to add your own temperature line
G21        ;metric values
G90        ;absolute positioning
M82        ;set extruder to absolute mode
M107       ;start with the fan off
G28 X0 Y0  ;move X/Y to min endstops
G28 Z0     ;move Z to min endstops
G1 Z15.0 F10500 ;move the platform down 15mm
G92 E0                  ;zero the extruded length
G1 F200 E0              ;extrude 3mm of feed stock
G92 E0                  ;zero the extruded length again
G1 F10500
M203 X192 Y208 Z3 ;speed limits

;TweakAtZ instances: 1
;Layer count: 205
;LAYER:0
M107
G0 F10500 X172.154 Y161.691 Z0.300
;TYPE:SKIRT
G1 F1800 X172.749 Y161.072 E0.01592
G1 X173.377 Y160.483 E0.03189
G1 X174.032 Y159.930 E0.04779
G1 X174.709 Y159.413 E0.06359
G1 X175.412 Y158.932 E0.07939
G1 X176.134 Y158.489 E0.09510
G1 X176.870 Y158.087 E0.11065
G1 X177.623 Y157.723 E0.12617
G1 X178.385 Y157.401 E0.14151
G1 X179.204 Y157.100 E0.15769
G1 X179.935 Y156.875 E0.17188
G1 X180.751 Y156.663 E0.18751
G1 X181.477 Y156.512 E0.20127
G1 X182.223 Y156.392 E0.21528
G1 X183.084 Y156.292 E0.23136
G1 X183.869 Y156.244 E0.24594
G1 X184.545 Y156.228 E0.25848
G1 X185.257 Y156.244 E0.27169
G1 X186.166 Y156.307 E0.28859
G1 X186.906 Y156.395 E0.30241
G1 X187.697 Y156.526 E0.31728
G1 X188.491 Y156.698 E0.33235
G1 X189.235 Y156.897 E0.34664
G1 X190.129 Y157.182 E0.36404
G1 X190.876 Y157.468 E0.37887
G1 X191.645 Y157.804 E0.39444
G1 X192.407 Y158.181 E0.41021
G1 X193.146 Y158.598 E0.42594
G1 X193.862 Y159.049 E0.44164
G1 X194.560 Y159.541 E0.45748
G1 X195.231 Y160.067 E0.47329
G1 X195.878 Y160.628 E0.48917
G1 X196.497 Y161.223 E0.50510
G1 X197.086 Y161.851 E0.52107
G1 X197.639 Y162.506 E0.53696
G1 X198.156 Y163.183 E0.55276
G1 X198.637 Y163.886 E0.56856
G1 X199.081 Y164.610 E0.58431
G1 X199.481 Y165.344 E0.59982
G1 X199.845 Y166.094 E0.61528
G1 X200.168 Y166.859 E0.63068
G1 X200.469 Y167.678 E0.64686
G1 X200.693 Y168.406 E0.66099
G1 X200.893 Y169.171 E0.67566
G1 X201.057 Y169.950 E0.69042
G1 X201.177 Y170.701 E0.70453
G1 X201.275 Y171.554 E0.72045
G1 X201.329 Y172.402 E0.73621
G1 X201.340 Y173.086 E0.74890
G1 X201.322 Y173.786 E0.76188
G1 X201.270 Y174.535 E0.77581
G1 X201.177 Y175.367 E0.79134
G1 X201.043 Y176.174 E0.80651
G1 X200.870 Y176.965 E0.82153
G1 X200.673 Y177.706 E0.83575
G1 X200.387 Y178.603 E0.85321
G1 X200.101 Y179.350 E0.86804
G1 X199.765 Y180.119 E0.88361
G1 X199.388 Y180.881 E0.89938
G1 X198.971 Y181.620 E0.91511
G1 X198.520 Y182.336 E0.93081
G1 X198.028 Y183.034 E0.94665
G1 X197.502 Y183.705 E0.96246
G1 X196.941 Y184.352 E0.97834
G1 X196.346 Y184.971 E0.99427
G1 X195.718 Y185.560 E1.01023
G1 X195.063 Y186.113 E1.02613
G1 X194.386 Y186.630 E1.04193
G1 X193.683 Y187.111 E1.05773
G1 X192.959 Y187.555 E1.07348
G1 X192.222 Y187.956 E1.08904
G1 X191.475 Y188.318 E1.10444
G1 X190.713 Y188.641 E1.11979
G1 X189.891 Y188.943 E1.13603
G1 X189.163 Y189.167 E1.15016
G1 X188.398 Y189.367 E1.16482
G1 X187.619 Y189.531 E1.17959
G1 X186.868 Y189.651 E1.19369
G1 X186.015 Y189.749 E1.20962
G1 X185.225 Y189.799 E1.22430
G1 X184.545 Y189.814 E1.23691
G1 X183.840 Y189.798 E1.24999
G1 X182.932 Y189.737 E1.26687
G1 X182.180 Y189.647 E1.28092
G1 X181.341 Y189.505 E1.29670
G1 X180.604 Y189.344 E1.31069
G1 X179.863 Y189.147 E1.32491
G1 X178.966 Y188.861 E1.34237
G1 X178.219 Y188.575 E1.35721
G1 X177.450 Y188.239 E1.37277
G1 X176.688 Y187.862 E1.38854
G1 X175.951 Y187.446 E1.40424
G1 X175.232 Y186.994 E1.41999
G1 X174.534 Y186.501 E1.43584
G1 X173.864 Y185.976 E1.45163
G1 X173.217 Y185.415 E1.46751
G1 X172.597 Y184.819 E1.48346
G1 X172.009 Y184.191 E1.49941
G1 X171.457 Y183.539 E1.51526
G1 X170.939 Y182.860 E1.53110
G1 X170.458 Y182.157 E1.54690
G1 X170.015 Y181.435 E1.56261
G1 X169.613 Y180.699 E1.57816
G1 X169.249 Y179.946 E1.59367
G1 X168.927 Y179.184 E1.60902
G1 X168.626 Y178.365 E1.62520
G1 X168.402 Y177.637 E1.63933
G1 X168.202 Y176.872 E1.65399
G1 X168.038 Y176.093 E1.66876
G1 X167.919 Y175.345 E1.68280
G1 X167.819 Y174.488 E1.69881
G1 X167.770 Y173.700 E1.71345
G1 X167.754 Y173.019 E1.72608
G1 X167.771 Y172.310 E1.73924
G1 X167.832 Y171.405 E1.75606
G1 X167.921 Y170.657 E1.77003
G1 X168.062 Y169.818 E1.78581
G1 X168.225 Y169.075 E1.79992
G1 X168.423 Y168.334 E1.81414
G1 X168.708 Y167.440 E1.83155
G1 X168.993 Y166.694 E1.84636
G1 X169.330 Y165.922 E1.86198
G1 X169.708 Y165.161 E1.87774
G1 X170.123 Y164.425 E1.89341
G1 X170.575 Y163.706 E1.90916
G1 X171.068 Y163.008 E1.92501
G1 X171.593 Y162.338 E1.94080
G1 X172.154 Y161.691 E1.95668
G0 F10500 X172.476 Y161.986
G1 F1800 X173.056 Y161.383 E1.97220
G1 X173.668 Y160.809 E1.98776
G1 X174.305 Y160.271 E2.00322
G1 X174.965 Y159.768 E2.01861
G1 X175.650 Y159.298 E2.03402
G1 X176.353 Y158.868 E2.04931
G1 X177.070 Y158.476 E2.06446
G1 X177.803 Y158.121 E2.07957
G1 X178.546 Y157.808 E2.09452
G1 X179.344 Y157.515 E2.11029
G1 X180.054 Y157.296 E2.12407
G1 X180.850 Y157.089 E2.13932
G1 X181.557 Y156.942 E2.15271
G1 X182.283 Y156.825 E2.16635
G1 X183.122 Y156.728 E2.18202
G1 X183.888 Y156.681 E2.19625
G1 X184.545 Y156.665 E2.20844
G1 X185.237 Y156.681 E2.22128
G1 X186.125 Y156.742 E2.23779
G1 X186.845 Y156.827 E2.25123
G1 X187.615 Y156.955 E2.26571
G1 X188.388 Y157.123 E2.28038
G1 X189.112 Y157.317 E2.29428
G1 X189.984 Y157.595 E2.31126
G1 X190.711 Y157.872 E2.32569
G1 X191.461 Y158.200 E2.34087
G1 X192.202 Y158.568 E2.35621
G1 X192.922 Y158.973 E2.37154
G1 X193.620 Y159.413 E2.38684
G1 X194.299 Y159.891 E2.40224
G1 X194.953 Y160.404 E2.41766
G1 X195.583 Y160.950 E2.43312
G1 X196.186 Y161.530 E2.44864
G1 X196.760 Y162.142 E2.46420
G1 X197.298 Y162.779 E2.47966
G1 X197.801 Y163.439 E2.49505
G1 X198.271 Y164.124 E2.51046
G1 X198.703 Y164.829 E2.52579
G1 X199.092 Y165.544 E2.54089
G1 X199.447 Y166.275 E2.55596
G1 X199.761 Y167.020 E2.57096
G1 X200.054 Y167.818 E2.58672
G1 X200.272 Y168.525 E2.60045
G1 X200.467 Y169.271 E2.61475
G1 X200.627 Y170.029 E2.62912
G1 X200.744 Y170.760 E2.64285
G1 X200.840 Y171.593 E2.65840
G1 X200.892 Y172.419 E2.67375
G1 X200.903 Y173.084 E2.68608
G1 X200.886 Y173.765 E2.69872
G1 X200.835 Y174.495 E2.71229
G1 X200.744 Y175.307 E2.72744
G1 X200.614 Y176.091 E2.74218
G1 X200.445 Y176.862 E2.75682
G1 X200.253 Y177.583 E2.77066
G1 X199.974 Y178.458 E2.78769
G1 X199.697 Y179.185 E2.80212
G1 X199.369 Y179.935 E2.81731
G1 X199.001 Y180.676 E2.83265
G1 X198.596 Y181.396 E2.84797
G1 X198.156 Y182.094 E2.86327
G1 X197.678 Y182.773 E2.87868
G1 X197.165 Y183.427 E2.89409
G1 X196.619 Y184.057 E2.90955
G1 X196.039 Y184.660 E2.92507
G1 X195.427 Y185.234 E2.94063
G1 X194.790 Y185.772 E2.95610
G1 X194.130 Y186.275 E2.97149
G1 X193.445 Y186.745 E2.98690
G1 X192.740 Y187.177 E3.00223
G1 X192.022 Y187.567 E3.01738
G1 X191.294 Y187.920 E3.03239
G1 X190.552 Y188.234 E3.04733
G1 X189.751 Y188.528 E3.06316
G1 X189.044 Y188.746 E3.07688
G1 X188.298 Y188.941 E3.09118
G1 X187.540 Y189.101 E3.10555
G1 X186.809 Y189.218 E3.11928
G1 X185.976 Y189.314 E3.13483
G1 X185.206 Y189.362 E3.14914
G1 X184.545 Y189.377 E3.16140
G1 X183.859 Y189.361 E3.17413
G1 X182.972 Y189.301 E3.19062
G1 X182.243 Y189.215 E3.20423
G1 X181.425 Y189.076 E3.21962
G1 X180.707 Y188.919 E3.23325
G1 X179.986 Y188.727 E3.24709
G1 X179.111 Y188.448 E3.26412
G1 X178.384 Y188.171 E3.27855
G1 X177.634 Y187.843 E3.29374
G1 X176.893 Y187.475 E3.30908
G1 X176.174 Y187.071 E3.32438
G1 X175.474 Y186.630 E3.33972
G1 X174.795 Y186.151 E3.35513
G1 X174.142 Y185.639 E3.37052
G1 X173.512 Y185.093 E3.38599
G1 X172.908 Y184.511 E3.40154
G1 X172.335 Y183.900 E3.41708
G1 X171.798 Y183.265 E3.43250
G1 X171.294 Y182.604 E3.44792
G1 X170.824 Y181.919 E3.46333
G1 X170.394 Y181.216 E3.47861
G1 X170.002 Y180.499 E3.49377
G1 X169.647 Y179.766 E3.50887
G1 X169.334 Y179.023 E3.52382
G1 X169.041 Y178.225 E3.53959
G1 X168.823 Y177.518 E3.55331
G1 X168.628 Y176.772 E3.56761
G1 X168.468 Y176.014 E3.58198
G1 X168.352 Y175.285 E3.59567
G1 X168.254 Y174.449 E3.61128
G1 X168.207 Y173.681 E3.62555
G1 X168.191 Y173.019 E3.63784
G1 X168.208 Y172.330 E3.65062
G1 X168.268 Y171.445 E3.66707
G1 X168.354 Y170.719 E3.68063
G1 X168.491 Y169.901 E3.69601
G1 X168.650 Y169.178 E3.70974
G1 X168.843 Y168.457 E3.72358
G1 X169.121 Y167.585 E3.74056
G1 X169.398 Y166.859 E3.75497
G1 X169.726 Y166.107 E3.77019
G1 X170.094 Y165.366 E3.78553
G1 X170.498 Y164.648 E3.80081
G1 X170.939 Y163.948 E3.81616
G1 X171.418 Y163.269 E3.83157
G1 X171.930 Y162.616 E3.84696
G1 X172.476 Y161.986 E3.86242
G0 F10500 X172.799 Y162.281
G1 F1800 X173.363 Y161.694 E3.87752
G1 X173.958 Y161.136 E3.89265
G1 X174.579 Y160.612 E3.90772
G1 X175.221 Y160.122 E3.92270
G1 X175.887 Y159.665 E3.93768
G1 X176.572 Y159.246 E3.95257
G1 X177.270 Y158.865 E3.96732
G1 X177.984 Y158.519 E3.98203
G1 X178.706 Y158.215 E3.99656
G1 X179.484 Y157.929 E4.01194
G1 X180.173 Y157.716 E4.02531
G1 X180.950 Y157.515 E4.04020
G1 X181.636 Y157.372 E4.05319
G1 X182.343 Y157.258 E4.06648
G1 X183.161 Y157.163 E4.08175
G1 X183.907 Y157.117 E4.09561
G1 X184.546 Y157.102 E4.10747
G1 X185.217 Y157.118 E4.11991
G1 X186.085 Y157.177 E4.13605
G1 X186.783 Y157.260 E4.14909
G1 X187.532 Y157.384 E4.16317
G1 X188.285 Y157.548 E4.17746
G1 X188.989 Y157.736 E4.19098
G1 X189.840 Y158.008 E4.20755
G1 X190.545 Y158.277 E4.22154
G1 X191.276 Y158.596 E4.23633
G1 X191.998 Y158.954 E4.25128
G1 X192.698 Y159.348 E4.26618
G1 X193.377 Y159.777 E4.28107
G1 X194.038 Y160.242 E4.29606
G1 X194.675 Y160.742 E4.31108
G1 X195.288 Y161.273 E4.32612
G1 X195.875 Y161.837 E4.34122
G1 X196.433 Y162.432 E4.35635
G1 X196.957 Y163.053 E4.37142
G1 X197.447 Y163.695 E4.38640
G1 X197.904 Y164.361 E4.40138
G1 X198.324 Y165.047 E4.41630
G1 X198.703 Y165.744 E4.43101
G1 X199.049 Y166.455 E4.44568
G1 X199.354 Y167.180 E4.46027
G1 X199.640 Y167.958 E4.47564
G1 X199.852 Y168.645 E4.48898
G1 X200.042 Y169.372 E4.50291
G1 X200.197 Y170.109 E4.51688
G1 X200.311 Y170.820 E4.53023
G1 X200.404 Y171.632 E4.54539
G1 X200.455 Y172.436 E4.56034
G1 X200.466 Y173.082 E4.57232
G1 X200.449 Y173.744 E4.58460
G1 X200.399 Y174.455 E4.59782
G1 X200.311 Y175.247 E4.61260
G1 X200.184 Y176.009 E4.62693
G1 X200.020 Y176.759 E4.64117
G1 X199.834 Y177.460 E4.65462
G1 X199.561 Y178.314 E4.67125
G1 X199.292 Y179.019 E4.68524
G1 X198.973 Y179.750 E4.70003
G1 X198.615 Y180.472 E4.71498
G1 X198.221 Y181.172 E4.72988
G1 X197.792 Y181.851 E4.74477
G1 X197.327 Y182.512 E4.75976
G1 X196.827 Y183.149 E4.77478
G1 X196.296 Y183.762 E4.78982
G1 X195.732 Y184.349 E4.80492
G1 X195.137 Y184.907 E4.82005
G1 X194.516 Y185.431 E4.83512
G1 X193.874 Y185.921 E4.85010
G1 X193.208 Y186.378 E4.86508
G1 X192.522 Y186.798 E4.88000
G1 X191.823 Y187.178 E4.89475
G1 X191.114 Y187.522 E4.90937
G1 X190.391 Y187.828 E4.92393
G1 X189.611 Y188.114 E4.93934
G1 X188.924 Y188.326 E4.95267
G1 X188.197 Y188.516 E4.96661
G1 X187.460 Y188.671 E4.98058
G1 X186.749 Y188.785 E4.99393
G1 X185.937 Y188.878 E5.00909
G1 X185.188 Y188.926 E5.02301
G1 X184.545 Y188.940 E5.03494
G1 X183.879 Y188.925 E5.04730
G1 X183.013 Y188.866 E5.06340
G1 X182.305 Y188.782 E5.07662
G1 X181.508 Y188.647 E5.09161
G1 X180.810 Y188.494 E5.10486
G1 X180.109 Y188.308 E5.11832
G1 X179.255 Y188.035 E5.13494
G1 X178.550 Y187.766 E5.14894
G1 X177.819 Y187.447 E5.16373
G1 X177.097 Y187.089 E5.17868
G1 X176.398 Y186.695 E5.19356
G1 X175.717 Y186.266 E5.20849
G1 X175.056 Y185.800 E5.22349
G1 X174.420 Y185.301 E5.23848
G1 X173.807 Y184.770 E5.25352
G1 X173.219 Y184.204 E5.26866
G1 X172.662 Y183.610 E5.28376
G1 X172.139 Y182.991 E5.29879
G1 X171.648 Y182.348 E5.31380
G1 X171.191 Y181.682 E5.32878
G1 X170.772 Y180.997 E5.34367
G1 X170.391 Y180.299 E5.35842
G1 X170.045 Y179.585 E5.37313
G1 X169.741 Y178.863 E5.38766
G1 X169.455 Y178.085 E5.40304
G1 X169.243 Y177.398 E5.41637
G1 X169.053 Y176.671 E5.43031
G1 X168.898 Y175.934 E5.44428
G1 X168.785 Y175.226 E5.45757
G1 X168.690 Y174.411 E5.47279
G1 X168.643 Y173.662 E5.48671
G1 X168.628 Y173.019 E5.49864
G1 X168.645 Y172.350 E5.51105
G1 X168.703 Y171.486 E5.52711
G1 X168.787 Y170.781 E5.54028
G1 X168.921 Y169.984 E5.55527
G1 X169.074 Y169.281 E5.56861
G1 X169.262 Y168.580 E5.58207
G1 X169.534 Y167.729 E5.59864
G1 X169.803 Y167.025 E5.61262
G1 X170.122 Y166.292 E5.62745
G1 X170.481 Y165.570 E5.64240
G1 X170.874 Y164.872 E5.65726
G1 X171.303 Y164.191 E5.67219
G1 X171.769 Y163.530 E5.68719
G1 X172.268 Y162.894 E5.70218
G1 X172.799 Y162.281 E5.71722
G1 F1500 E4.21722
G1 Z0.400
G0 F10500 X175.988 Y165.183
;TYPE:WALL-INNER
G1 Z0.300
G1 F1500 E5.71722
G1 F1800 X176.399 Y164.756 E5.72821
G1 X176.819 Y164.361 E5.73891
G1 X177.284 Y163.968 E5.75020
G1 X177.742 Y163.619 E5.76088
G1 X178.231 Y163.284 E5.77187
G1 X178.728 Y162.980 E5.78268
G1 X179.246 Y162.697 E5.79362
G1 X179.770 Y162.443 E5.80442
G1 X180.279 Y162.228 E5.81467
G1 X180.861 Y162.015 E5.82617
G1 X181.351 Y161.864 E5.83568
G1 X181.935 Y161.712 E5.84687
G1 X182.929 Y161.529 E5.86561
G1 X183.542 Y161.458 E5.87706
G1 X184.084 Y161.425 E5.88713
G1 X184.548 Y161.414 E5.89574
G1 X185.036 Y161.425 E5.90479
G1 X185.681 Y161.469 E5.91678
G1 X186.717 Y161.617 E5.93619
G1 X187.262 Y161.736 E5.94654
G1 X187.788 Y161.877 E5.95664
G1 X188.410 Y162.075 E5.96874
G1 X188.900 Y162.262 E5.97847
G1 X189.473 Y162.513 E5.99007
G1 X189.968 Y162.758 E6.00032
G1 X190.489 Y163.051 E6.01140
G1 X190.989 Y163.367 E6.02237
G1 X191.473 Y163.708 E6.03336
G1 X191.924 Y164.061 E6.04398
G1 X192.386 Y164.462 E6.05532
G1 X192.813 Y164.873 E6.06632
G1 X193.208 Y165.293 E6.07701
G1 X193.601 Y165.758 E6.08830
G1 X193.950 Y166.216 E6.09898
G1 X194.285 Y166.705 E6.10997
G1 X194.594 Y167.209 E6.12094
G1 X194.871 Y167.719 E6.13170
G1 X195.123 Y168.236 E6.14237
G1 X195.341 Y168.753 E6.15278
G1 X195.554 Y169.335 E6.16427
G1 X195.712 Y169.847 E6.17421
G1 X195.840 Y170.336 E6.18358
G1 X195.961 Y170.910 E6.19446
G1 X196.038 Y171.394 E6.20355
G1 X196.110 Y172.015 E6.21515
G1 X196.147 Y172.608 E6.22617
G1 X196.155 Y173.058 E6.23451
G1 X196.142 Y173.555 E6.24374
G1 X196.107 Y174.058 E6.25309
G1 X196.040 Y174.658 E6.26428
G1 X195.954 Y175.176 E6.27402
G1 X195.829 Y175.752 E6.28496
G1 X195.695 Y176.252 E6.29456
G1 X195.494 Y176.884 E6.30686
G1 X195.307 Y177.374 E6.31658
G1 X195.056 Y177.947 E6.32819
G1 X194.811 Y178.442 E6.33843
G1 X194.518 Y178.963 E6.34952
G1 X194.202 Y179.463 E6.36049
G1 X193.861 Y179.947 E6.37147
G1 X193.508 Y180.398 E6.38209
G1 X193.107 Y180.860 E6.39343
G1 X192.696 Y181.287 E6.40443
G1 X192.276 Y181.682 E6.41512
G1 X191.811 Y182.075 E6.42641
G1 X191.353 Y182.424 E6.43709
G1 X190.864 Y182.759 E6.44809
G1 X190.360 Y183.068 E6.45905
G1 X189.859 Y183.340 E6.46962
G1 X189.338 Y183.592 E6.48036
G1 X188.800 Y183.820 E6.49119
G1 X188.234 Y184.028 E6.50238
G1 X187.727 Y184.184 E6.51222
G1 X187.226 Y184.315 E6.52182
G1 X186.659 Y184.435 E6.53257
G1 X186.175 Y184.512 E6.54166
G1 X185.554 Y184.584 E6.55325
G1 X185.007 Y184.618 E6.56342
G1 X184.548 Y184.628 E6.57193
G1 X184.077 Y184.618 E6.58067
G1 X183.397 Y184.572 E6.59331
G1 X182.323 Y184.413 E6.61345
G1 X181.817 Y184.303 E6.62305
G1 X181.317 Y184.169 E6.63265
G1 X180.685 Y183.968 E6.64495
G1 X180.195 Y183.781 E6.65468
G1 X179.622 Y183.530 E6.66628
G1 X179.127 Y183.285 E6.67653
G1 X178.597 Y182.986 E6.68781
G1 X178.100 Y182.674 E6.69870
G1 X177.635 Y182.345 E6.70926
G1 X177.171 Y181.982 E6.72019
G1 X176.709 Y181.581 E6.73153
G1 X176.292 Y181.181 E6.74225
G1 X175.878 Y180.738 E6.75350
G1 X175.494 Y180.284 E6.76452
G1 X175.145 Y179.827 E6.77519
G1 X174.810 Y179.338 E6.78618
G1 X174.506 Y178.841 E6.79699
G1 X174.223 Y178.323 E6.80794
G1 X173.969 Y177.799 E6.81874
G1 X173.754 Y177.290 E6.82898
G1 X173.541 Y176.708 E6.84048
G1 X173.383 Y176.196 E6.85042
G1 X173.254 Y175.700 E6.85992
G1 X173.134 Y175.133 E6.87067
G1 X173.057 Y174.654 E6.87967
G1 X172.984 Y174.022 E6.89147
G1 X172.951 Y173.485 E6.90145
G1 X172.940 Y173.021 E6.91005
G1 X172.997 Y171.870 E6.93143
G1 X173.153 Y170.803 E6.95143
G1 X173.263 Y170.303 E6.96092
G1 X173.403 Y169.781 E6.97095
G1 X173.601 Y169.159 E6.98305
G1 X173.791 Y168.661 E6.99294
G1 X174.031 Y168.111 E7.00407
G1 X174.288 Y167.594 E7.01478
G1 X174.583 Y167.071 E7.02591
G1 X174.895 Y166.574 E7.03680
G1 X175.224 Y166.109 E7.04736
G1 X175.587 Y165.645 E7.05829
G1 X175.988 Y165.183 E7.06963
G0 F10500 X175.661 Y164.892
G1 F1800 X176.085 Y164.452 E7.08097
G1 X176.538 Y164.027 E7.09249
G1 X177.003 Y163.634 E7.10378
G1 X177.499 Y163.256 E7.11535
G1 X177.997 Y162.914 E7.12655
G1 X178.498 Y162.607 E7.13745
G1 X179.041 Y162.311 E7.14892
G1 X179.590 Y162.045 E7.16023
G1 X180.117 Y161.822 E7.17085
G1 X180.725 Y161.599 E7.18286
G1 X181.230 Y161.444 E7.19265
G1 X181.841 Y161.285 E7.20436
G1 X182.877 Y161.095 E7.22390
G1 X183.503 Y161.023 E7.23559
G1 X184.073 Y160.988 E7.24618
G1 X184.548 Y160.976 E7.25499
G1 X185.054 Y160.988 E7.26438
G1 X185.723 Y161.034 E7.27681
G1 X186.232 Y161.095 E7.28632
G1 X186.803 Y161.189 E7.29705
G1 X187.362 Y161.310 E7.30766
G1 X187.908 Y161.457 E7.31815
G1 X188.555 Y161.663 E7.33074
G1 X189.088 Y161.866 E7.34132
G1 X189.630 Y162.104 E7.35230
G1 X190.189 Y162.380 E7.36386
G1 X190.709 Y162.673 E7.37493
G1 X191.227 Y163.000 E7.38629
G1 X191.741 Y163.362 E7.39795
G1 X192.203 Y163.724 E7.40884
G1 X192.677 Y164.135 E7.42048
G1 X193.116 Y164.557 E7.43177
G1 X193.542 Y165.012 E7.44333
G1 X193.935 Y165.477 E7.45462
G1 X194.318 Y165.979 E7.46633
G1 X194.655 Y166.471 E7.47739
G1 X194.968 Y166.982 E7.48851
G1 X195.258 Y167.515 E7.49976
G1 X195.521 Y168.057 E7.51093
G1 X195.745 Y168.587 E7.52161
G1 X195.970 Y169.199 E7.53370
G1 X196.122 Y169.692 E7.54327
G1 X196.275 Y170.277 E7.55448
G1 X196.387 Y170.813 E7.56464
G1 X196.471 Y171.333 E7.57441
G1 X196.545 Y171.977 E7.58643
G1 X196.584 Y172.594 E7.59790
G1 X196.592 Y173.052 E7.60639
G1 X196.579 Y173.574 E7.61608
G1 X196.543 Y174.090 E7.62567
G1 X196.472 Y174.719 E7.63741
G1 X196.381 Y175.272 E7.64781
G1 X196.254 Y175.851 E7.65880
G1 X196.115 Y176.372 E7.66880
G1 X195.906 Y177.029 E7.68159
G1 X195.703 Y177.562 E7.69217
G1 X195.468 Y178.099 E7.70304
G1 X195.189 Y178.663 E7.71471
G1 X194.896 Y179.183 E7.72578
G1 X194.569 Y179.701 E7.73714
G1 X194.208 Y180.213 E7.74876
G1 X193.849 Y180.672 E7.75957
G1 X193.434 Y181.151 E7.77132
G1 X193.012 Y181.590 E7.78261
G1 X192.557 Y182.016 E7.79417
G1 X192.092 Y182.409 E7.80547
G1 X191.596 Y182.787 E7.81703
G1 X191.098 Y183.129 E7.82824
G1 X190.587 Y183.442 E7.83935
G1 X190.067 Y183.725 E7.85033
G1 X189.504 Y183.998 E7.86194
G1 X188.977 Y184.221 E7.87255
G1 X188.370 Y184.444 E7.88454
G1 X187.870 Y184.598 E7.89425
G1 X187.301 Y184.747 E7.90515
G1 X186.756 Y184.861 E7.91548
G1 X186.225 Y184.946 E7.92546
G1 X185.592 Y185.019 E7.93727
G1 X185.020 Y185.055 E7.94790
G1 X184.548 Y185.066 E7.95666
G1 X183.355 Y185.007 E7.97881
G1 X182.246 Y184.844 E7.99960
G1 X181.718 Y184.728 E8.00963
G1 X181.197 Y184.589 E8.01963
G1 X180.540 Y184.380 E8.03242
G1 X180.007 Y184.177 E8.04299
G1 X179.465 Y183.939 E8.05397
G1 X178.906 Y183.663 E8.06554
G1 X178.376 Y183.364 E8.07682
G1 X177.871 Y183.046 E8.08789
G1 X177.355 Y182.682 E8.09960
G1 X176.892 Y182.319 E8.11051
G1 X176.418 Y181.908 E8.12215
G1 X175.979 Y181.486 E8.13344
G1 X175.553 Y181.030 E8.14502
G1 X175.160 Y180.566 E8.15630
G1 X174.777 Y180.064 E8.16801
G1 X174.440 Y179.572 E8.17907
G1 X174.132 Y179.069 E8.19001
G1 X173.837 Y178.528 E8.20143
G1 X173.568 Y177.973 E8.21287
G1 X173.348 Y177.452 E8.22336
G1 X173.125 Y176.844 E8.23537
G1 X172.971 Y176.344 E8.24508
G1 X172.820 Y175.766 E8.25616
G1 X172.708 Y175.230 E8.26631
G1 X172.623 Y174.702 E8.27623
G1 X172.549 Y174.063 E8.28816
G1 X172.513 Y173.485 E8.29890
G1 X172.502 Y173.021 E8.30751
G1 X172.562 Y171.828 E8.32967
G1 X172.724 Y170.723 E8.35038
G1 X172.835 Y170.212 E8.36008
G1 X172.984 Y169.656 E8.37075
G1 X173.189 Y169.014 E8.38325
G1 X173.394 Y168.477 E8.39391
G1 X173.627 Y167.943 E8.40472
G1 X173.906 Y167.380 E8.41637
G1 X174.205 Y166.850 E8.42766
G1 X174.523 Y166.345 E8.43873
G1 X174.887 Y165.829 E8.45044
G1 X175.246 Y165.371 E8.46123
G1 X175.661 Y164.892 E8.47299
G0 F10500 X175.341 Y164.595
;TYPE:WALL-OUTER
G1 F1800 X175.775 Y164.143 E8.48461
G1 X176.240 Y163.707 E8.49643
G1 X176.735 Y163.289 E8.50845
G1 X177.231 Y162.910 E8.52002
G1 X177.753 Y162.552 E8.53176
G1 X178.298 Y162.218 E8.54362
G1 X178.838 Y161.923 E8.55503
G1 X179.396 Y161.653 E8.56653
G1 X179.966 Y161.413 E8.57800
G1 X180.588 Y161.184 E8.59029
G1 X181.107 Y161.024 E8.60036
G1 X181.738 Y160.860 E8.61246
G1 X182.256 Y160.752 E8.62227
G1 X182.809 Y160.663 E8.63266
G1 X183.464 Y160.588 E8.64489
G1 X184.057 Y160.551 E8.65591
G1 X184.547 Y160.539 E8.66500
G1 X185.065 Y160.551 E8.67461
G1 X185.763 Y160.599 E8.68758
G1 X186.294 Y160.662 E8.69750
G1 X186.889 Y160.760 E8.70868
G1 X187.471 Y160.887 E8.71973
G1 X188.023 Y161.035 E8.73033
G1 X188.701 Y161.251 E8.74353
G1 X189.248 Y161.460 E8.75439
G1 X189.829 Y161.714 E8.76615
G1 X190.386 Y161.990 E8.77768
G1 X190.942 Y162.303 E8.78951
G1 X191.475 Y162.639 E8.80120
G1 X191.984 Y162.998 E8.81275
G1 X192.484 Y163.390 E8.82454
G1 X192.974 Y163.815 E8.83657
G1 X193.426 Y164.249 E8.84819
G1 X193.862 Y164.714 E8.86001
G1 X194.280 Y165.209 E8.87203
G1 X194.659 Y165.705 E8.88360
G1 X195.017 Y166.227 E8.89534
G1 X195.345 Y166.762 E8.90698
G1 X195.649 Y167.321 E8.91878
G1 X195.916 Y167.870 E8.93011
G1 X196.155 Y168.436 E8.94150
G1 X196.385 Y169.062 E8.95387
G1 X196.545 Y169.581 E8.96394
G1 X196.698 Y170.166 E8.97516
G1 X196.817 Y170.729 E8.98583
G1 X196.906 Y171.283 E8.99624
G1 X196.980 Y171.932 E9.00835
G1 X197.021 Y172.578 E9.02036
G1 X197.029 Y173.063 E9.02935
G1 X197.016 Y173.587 E9.03908
G1 X196.978 Y174.139 E9.04934
G1 X196.905 Y174.780 E9.06130
G1 X196.810 Y175.355 E9.07211
G1 X196.681 Y175.945 E9.08331
G1 X196.536 Y176.491 E9.09379
G1 X196.319 Y177.172 E9.10705
G1 X196.109 Y177.722 E9.11797
G1 X195.855 Y178.303 E9.12973
G1 X195.579 Y178.860 E9.14126
G1 X195.266 Y179.416 E9.15309
G1 X194.936 Y179.940 E9.16457
G1 X194.571 Y180.458 E9.17633
G1 X194.179 Y180.958 E9.18811
G1 X193.754 Y181.448 E9.20014
G1 X193.320 Y181.900 E9.21176
G1 X192.855 Y182.336 E9.22359
G1 X192.360 Y182.754 E9.23560
G1 X191.864 Y183.133 E9.24718
G1 X191.342 Y183.491 E9.25892
G1 X190.807 Y183.819 E9.27056
G1 X190.248 Y184.123 E9.28236
G1 X189.699 Y184.389 E9.29367
G1 X189.129 Y184.631 E9.30516
G1 X188.507 Y184.859 E9.31745
G1 X187.988 Y185.019 E9.32752
G1 X187.403 Y185.172 E9.33873
G1 X186.834 Y185.292 E9.34952
G1 X186.286 Y185.380 E9.35981
G1 X185.632 Y185.454 E9.37202
G1 X185.037 Y185.492 E9.38308
G1 X184.547 Y185.503 E9.39217
G1 X184.039 Y185.491 E9.40159
G1 X183.326 Y185.443 E9.41485
G1 X182.800 Y185.381 E9.42467
G1 X182.165 Y185.273 E9.43662
G1 X181.623 Y185.155 E9.44690
G1 X181.072 Y185.008 E9.45748
G1 X180.394 Y184.792 E9.47068
G1 X179.847 Y184.583 E9.48154
G1 X179.266 Y184.329 E9.49330
G1 X178.708 Y184.053 E9.50484
G1 X178.153 Y183.740 E9.51666
G1 X177.629 Y183.410 E9.52815
G1 X177.103 Y183.039 E9.54009
G1 X176.611 Y182.653 E9.55168
G1 X176.121 Y182.228 E9.56371
G1 X175.666 Y181.791 E9.57541
G1 X175.225 Y181.320 E9.58738
G1 X174.814 Y180.834 E9.59919
G1 X174.436 Y180.338 E9.61075
G1 X174.072 Y179.807 E9.62269
G1 X173.744 Y179.271 E9.63435
G1 X173.449 Y178.731 E9.64576
G1 X173.179 Y178.173 E9.65726
G1 X172.936 Y177.597 E9.66885
G1 X172.710 Y176.981 E9.68102
G1 X172.550 Y176.462 E9.69109
G1 X172.397 Y175.877 E9.70231
G1 X172.276 Y175.303 E9.71319
G1 X172.189 Y174.760 E9.72339
G1 X172.113 Y174.100 E9.73571
G1 X172.077 Y173.512 E9.74664
G1 X172.065 Y173.026 E9.75565
G1 X172.078 Y172.513 E9.76517
G1 X172.126 Y171.799 E9.77844
G1 X172.188 Y171.274 E9.78825
G1 X172.294 Y170.642 E9.80013
G1 X172.413 Y170.098 E9.81046
G1 X172.559 Y169.552 E9.82094
G1 X172.776 Y168.871 E9.83420
G1 X172.986 Y168.321 E9.84512
G1 X173.240 Y167.739 E9.85690
G1 X173.516 Y167.183 E9.86841
G1 X173.829 Y166.627 E9.88024
G1 X174.159 Y166.103 E9.89173
G1 X174.524 Y165.585 E9.90348
G1 X174.916 Y165.085 E9.91526
G1 X175.341 Y164.595 E9.92729
G0 F10500 X176.100 Y165.286
;TYPE:SKIN
G1 F1800 X192.281 Y181.466 E10.35170
G0 F10500 X192.599 Y181.167
G1 F1800 X176.402 Y164.970 E10.77653
G0 F10500 X176.717 Y164.666
G1 F1800 X192.902 Y180.851 E11.20105
G0 F10500 X193.194 Y180.525
G1 F1800 X177.041 Y164.372 E11.62473
G0 F10500 X177.376 Y164.089
G1 F1800 X193.476 Y180.189 E12.04702
G0 F10500 X191.952 Y181.756
G1 F1800 X175.813 Y165.617 E12.47033
G0 F10500 X175.535 Y165.957
G1 F1800 X191.612 Y182.034 E12.89202
G0 F10500 X191.261 Y182.300
G1 F1800 X175.268 Y166.307 E13.31150
G0 F10500 X175.013 Y166.671
G1 F1800 X190.894 Y182.551 E13.72804
G0 F10500 X190.516 Y182.792
G1 F1800 X174.775 Y167.051 E14.14091
G0 F10500 X174.548 Y167.442
G1 F1800 X190.126 Y183.019 E14.54950
G0 F10500 X189.723 Y183.234
G1 F1800 X174.332 Y167.844 E14.95318
G0 F10500 X174.132 Y168.261
G1 F1800 X189.306 Y183.436 E15.35119
G0 F10500 X188.873 Y183.621
G1 F1800 X173.944 Y168.691 E15.74278
G0 F10500 X173.772 Y169.137
G1 F1800 X188.427 Y183.793 E16.12718
G0 F10500 X187.965 Y183.949
G1 F1800 X173.619 Y169.603 E16.50347
G0 F10500 X173.480 Y170.081
G1 F1800 X187.486 Y184.088 E16.87085
G0 F10500 X186.988 Y184.208
G1 F1800 X173.358 Y170.578 E17.22835
G0 F10500 X173.263 Y171.101
G1 F1800 X186.472 Y184.310 E17.57481
G0 F10500 X185.929 Y184.385
G1 F1800 X173.184 Y171.640 E17.90911
G0 F10500 X173.132 Y172.205
G1 F1800 X185.368 Y184.441 E18.23005
G0 F10500 X184.777 Y184.469
G1 F1800 X173.103 Y172.794 E18.53626
G0 F10500 X173.101 Y173.411
G1 F1800 X184.156 Y184.465 E18.82621
G0 F10500 X183.496 Y184.424
G1 F1800 X173.143 Y174.071 E19.09776
G0 F10500 X173.231 Y174.777
G1 F1800 X182.779 Y184.325 E19.34820
G0 F10500 X182.027 Y184.191
G1 F1800 X173.376 Y175.540 E19.57511
G0 F10500 X173.599 Y176.381
G1 F1800 X181.181 Y183.963 E19.77398
G0 F10500 X180.227 Y183.627
G1 F1800 X173.941 Y177.340 E19.93887
G0 F10500 X174.506 Y178.524
G1 F1800 X179.043 Y183.061 E20.05787
G0 F10500 X176.955 Y181.591
G1 F1800 X175.948 Y180.584 E20.08428
G0 F10500 X177.727 Y163.822
G1 F1800 X193.747 Y179.843 E20.50449
G0 F10500 X194.002 Y179.479
G1 F1800 X178.089 Y163.566 E20.92187
G0 F10500 X178.462 Y163.321
G1 F1800 X194.246 Y179.105 E21.33587
G0 F10500 X194.478 Y178.719
G1 F1800 X178.847 Y163.089 E21.74585
G0 F10500 X179.247 Y162.870
G1 F1800 X194.699 Y178.322 E22.15114
G0 F10500 X194.903 Y177.908
G1 F1800 X179.660 Y162.666 E22.55094
G0 F10500 X180.088 Y162.475
G1 F1800 X195.092 Y177.480 E22.94450
G0 F10500 X195.269 Y177.039
G1 F1800 X180.530 Y162.299 E23.33110
G0 F10500 X180.985 Y162.136
G1 F1800 X195.429 Y176.580 E23.70996
G0 F10500 X195.574 Y176.107
G1 F1800 X181.460 Y161.993 E24.08016
G0 F10500 X181.951 Y161.866
G1 F1800 X195.700 Y175.616 E24.44080
G0 F10500 X195.810 Y175.107
G1 F1800 X182.471 Y161.769 E24.79066
G0 F10500 X182.997 Y161.676
G1 F1800 X195.894 Y174.574 E25.12895
G0 F10500 X195.956 Y174.018
G1 F1800 X183.550 Y161.611 E25.45436
G0 F10500 X184.134 Y161.577
G1 F1800 X195.991 Y173.434 E25.76536
G0 F10500 X195.997 Y172.822
G1 F1800 X184.746 Y161.571 E26.06046
G0 F10500 X185.395 Y161.602
G1 F1800 X195.966 Y172.173 E26.33773
G0 F10500 X195.894 Y171.484
G1 F1800 X186.093 Y161.682 E26.59482
G0 F10500 X186.826 Y161.798
G1 F1800 X195.768 Y170.740 E26.82936
G0 F10500 X195.575 Y169.928
G1 F1800 X187.644 Y161.998 E27.03737
G0 F10500 X188.563 Y162.298
G1 F1800 X195.268 Y169.004 E27.21325
G0 F10500 X194.794 Y167.911
G1 F1800 X189.659 Y162.776 E27.34794
G0 F10500 X191.213 Y163.712
G1 F1800 X193.866 Y166.365 E27.41752
;LAYER:1
M106 S45
G0 F10500 X194.102 Y166.059 Z0.510
;TYPE:WALL-INNER
G1 F2520 X194.434 Y166.539 E27.42359
G1 X194.757 Y167.059 E27.42996
G1 X195.036 Y167.568 E27.43599
G1 X195.308 Y168.123 E27.44242
G1 X195.527 Y168.637 E27.44823
G1 X195.757 Y169.257 E27.45511
G1 X196.045 Y170.263 E27.46599
G1 X196.166 Y170.830 E27.47202
G1 X196.322 Y171.958 E27.48386
G1 X196.364 Y172.596 E27.49050
G1 X196.372 Y173.107 E27.49582
G1 X196.315 Y174.180 E27.50699
G1 X196.261 Y174.633 E27.51174
G1 X196.172 Y175.187 E27.51757
G1 X196.051 Y175.756 E27.52362
G1 X195.695 Y176.968 E27.53675
G1 X195.286 Y177.966 E27.54797
G1 X195.017 Y178.514 E27.55432
G1 X194.728 Y179.033 E27.56049
G1 X194.409 Y179.541 E27.56673
G1 X194.063 Y180.039 E27.57304
G1 X193.687 Y180.521 E27.57939
G1 X193.641 Y180.579 E27.58016
G1 X193.304 Y180.966 E27.58550
G1 X192.891 Y181.398 E27.59171
G1 X192.434 Y181.830 E27.59825
G1 X191.987 Y182.209 E27.60435
G1 X191.510 Y182.576 E27.61060
G1 X191.030 Y182.908 E27.61667
G1 X190.510 Y183.231 E27.62304
G1 X189.993 Y183.514 E27.62917
G1 X189.468 Y183.771 E27.63524
G1 X188.925 Y184.004 E27.64139
G1 X188.312 Y184.231 E27.64818
G1 X187.306 Y184.519 E27.65907
G1 X186.744 Y184.639 E27.66504
G1 X185.612 Y184.796 E27.67692
G1 X185.065 Y184.833 E27.68263
G1 X184.548 Y184.845 E27.68800
G1 X183.395 Y184.790 E27.70001
G1 X182.286 Y184.628 E27.71166
G1 X181.353 Y184.404 E27.72164
G1 X180.601 Y184.169 E27.72983
G1 X179.603 Y183.760 E27.74104
G1 X179.055 Y183.491 E27.74739
G1 X178.536 Y183.201 E27.75357
G1 X178.027 Y182.883 E27.75981
G1 X177.530 Y182.537 E27.76611
G1 X177.048 Y182.161 E27.77247
G1 X176.990 Y182.115 E27.77324
G1 X176.603 Y181.778 E27.77857
G1 X176.172 Y181.366 E27.78477
G1 X175.740 Y180.908 E27.79132
G1 X175.363 Y180.466 E27.79736
G1 X174.991 Y179.981 E27.80372
G1 X174.661 Y179.504 E27.80975
G1 X174.334 Y178.976 E27.81620
G1 X174.057 Y178.474 E27.82217
G1 X173.794 Y177.936 E27.82839
G1 X173.566 Y177.403 E27.83442
G1 X173.338 Y176.786 E27.84126
G1 X173.050 Y175.780 E27.85214
G1 X172.929 Y175.213 E27.85817
G1 X172.773 Y174.097 E27.86989
G1 X172.736 Y173.543 E27.87566
G1 X172.723 Y173.021 E27.88109
G1 X172.779 Y171.867 E27.89310
G1 X172.940 Y170.762 E27.90471
G1 X173.043 Y170.287 E27.90977
G1 X173.400 Y169.075 E27.92291
G1 X173.817 Y168.058 E27.93434
G1 X174.073 Y167.537 E27.94037
G1 X174.368 Y167.010 E27.94665
G1 X174.686 Y166.501 E27.95289
G1 X175.032 Y166.004 E27.95919
G1 X175.408 Y165.522 E27.96555
G1 X175.454 Y165.464 E27.96632
G1 X175.791 Y165.077 E27.97165
G1 X176.204 Y164.645 E27.97787
G1 X176.661 Y164.213 E27.98441
G1 X177.102 Y163.837 E27.99043
G1 X177.588 Y163.465 E27.99680
G1 X178.065 Y163.135 E28.00283
G1 X178.593 Y162.808 E28.00928
G1 X179.095 Y162.531 E28.01525
G1 X179.633 Y162.268 E28.02147
G1 X180.167 Y162.040 E28.02751
G1 X180.783 Y161.812 E28.03434
G1 X181.871 Y161.504 E28.04610
G1 X182.797 Y161.330 E28.05590
G1 X183.485 Y161.246 E28.06310
G1 X184.026 Y161.210 E28.06874
G1 X184.547 Y161.197 E28.07416
G1 X185.701 Y161.253 E28.08617
G1 X186.722 Y161.398 E28.09690
G1 X187.271 Y161.514 E28.10273
G1 X188.494 Y161.874 E28.11599
G1 X189.492 Y162.283 E28.12720
G1 X190.040 Y162.552 E28.13355
G1 X190.559 Y162.841 E28.13973
G1 X191.067 Y163.160 E28.14596
G1 X191.565 Y163.506 E28.15227
G1 X192.047 Y163.882 E28.15863
G1 X192.105 Y163.928 E28.15940
G1 X192.492 Y164.265 E28.16473
G1 X192.924 Y164.678 E28.17095
G1 X193.356 Y165.135 E28.17748
G1 X193.741 Y165.589 E28.18367
G1 X194.102 Y166.059 E28.18984
G0 F10500 X194.374 Y165.838
G1 F2520 X194.741 Y166.368 E28.19654
G1 X195.050 Y166.866 E28.20263
G1 X195.344 Y167.401 E28.20898
G1 X195.616 Y167.957 E28.21542
G1 X195.857 Y168.520 E28.22179
G1 X196.088 Y169.142 E28.22869
G1 X196.240 Y169.633 E28.23403
G1 X196.384 Y170.173 E28.23984
G1 X196.504 Y170.732 E28.24579
G1 X196.670 Y171.912 E28.25818
G1 X196.714 Y172.587 E28.26521
G1 X196.722 Y173.104 E28.27059
G1 X196.663 Y174.220 E28.28221
G1 X196.516 Y175.255 E28.29308
G1 X196.396 Y175.818 E28.29906
G1 X196.264 Y176.319 E28.30445
G1 X196.024 Y177.086 E28.31281
G1 X195.850 Y177.542 E28.31788
G1 X195.597 Y178.128 E28.32452
G1 X195.329 Y178.675 E28.33085
G1 X195.037 Y179.198 E28.33708
G1 X194.702 Y179.732 E28.34364
G1 X194.344 Y180.247 E28.35016
G1 X193.908 Y180.808 E28.35755
G1 X193.575 Y181.188 E28.36280
G1 X193.137 Y181.646 E28.36939
G1 X192.674 Y182.084 E28.37602
G1 X192.205 Y182.483 E28.38242
G1 X191.731 Y182.848 E28.38864
G1 X191.201 Y183.215 E28.39534
G1 X190.703 Y183.524 E28.40144
G1 X190.159 Y183.823 E28.40789
G1 X189.603 Y184.094 E28.41432
G1 X189.068 Y184.324 E28.42038
G1 X188.421 Y184.564 E28.42755
G1 X187.936 Y184.714 E28.43283
G1 X187.389 Y184.860 E28.43872
G1 X186.830 Y184.979 E28.44466
G1 X185.658 Y185.144 E28.45697
G1 X185.075 Y185.183 E28.46304
G1 X184.548 Y185.196 E28.46853
G1 X183.351 Y185.137 E28.48099
G1 X182.896 Y185.083 E28.48575
G1 X182.215 Y184.970 E28.49293
G1 X181.250 Y184.738 E28.50325
G1 X180.483 Y184.498 E28.51161
G1 X179.441 Y184.071 E28.52332
G1 X178.894 Y183.803 E28.52965
G1 X178.359 Y183.504 E28.53602
G1 X177.845 Y183.183 E28.54232
G1 X177.320 Y182.817 E28.54898
G1 X176.761 Y182.382 E28.55634
G1 X176.381 Y182.049 E28.56160
G1 X175.912 Y181.601 E28.56834
G1 X175.485 Y181.148 E28.57481
G1 X175.084 Y180.678 E28.58124
G1 X174.720 Y180.203 E28.58746
G1 X174.354 Y179.675 E28.59414
G1 X174.043 Y179.173 E28.60028
G1 X173.745 Y178.632 E28.60670
G1 X173.482 Y178.094 E28.61293
G1 X173.238 Y177.523 E28.61939
G1 X173.005 Y176.895 E28.62635
G1 X172.855 Y176.410 E28.63163
G1 X172.709 Y175.863 E28.63752
G1 X172.590 Y175.304 E28.64346
G1 X172.424 Y174.128 E28.65581
G1 X172.385 Y173.540 E28.66194
G1 X172.372 Y173.021 E28.66734
G1 X172.432 Y171.818 E28.67986
G1 X172.485 Y171.372 E28.68453
G1 X172.597 Y170.692 E28.69170
G1 X172.703 Y170.202 E28.69691
G1 X173.073 Y168.950 E28.71049
G1 X173.494 Y167.922 E28.72204
G1 X173.773 Y167.355 E28.72861
G1 X174.065 Y166.833 E28.73483
G1 X174.384 Y166.322 E28.74109
G1 X174.752 Y165.794 E28.74778
G1 X175.187 Y165.235 E28.75515
G1 X175.520 Y164.855 E28.76040
G1 X175.958 Y164.397 E28.76699
G1 X176.421 Y163.959 E28.77362
G1 X176.891 Y163.558 E28.78004
G1 X177.364 Y163.195 E28.78624
G1 X177.894 Y162.828 E28.79295
G1 X178.392 Y162.519 E28.79904
G1 X178.937 Y162.219 E28.80551
G1 X179.471 Y161.958 E28.81169
G1 X180.046 Y161.712 E28.81819
G1 X180.674 Y161.479 E28.82516
G1 X181.154 Y161.331 E28.83038
G1 X181.805 Y161.160 E28.83738
G1 X182.762 Y160.981 E28.84750
G1 X183.438 Y160.898 E28.85458
G1 X184.018 Y160.860 E28.86063
G1 X184.547 Y160.846 E28.86613
G1 X185.745 Y160.906 E28.87860
G1 X186.210 Y160.961 E28.88347
G1 X186.769 Y161.051 E28.88936
G1 X187.369 Y161.178 E28.89574
G1 X188.612 Y161.545 E28.90921
G1 X189.068 Y161.719 E28.91429
G1 X189.654 Y161.972 E28.92092
G1 X190.201 Y162.240 E28.92726
G1 X190.724 Y162.532 E28.93349
G1 X191.258 Y162.867 E28.94004
G1 X191.775 Y163.226 E28.94659
G1 X192.334 Y163.661 E28.95395
G1 X192.714 Y163.994 E28.95920
G1 X193.172 Y164.432 E28.96579
G1 X193.610 Y164.895 E28.97242
G1 X194.009 Y165.364 E28.97882
G1 X194.374 Y165.838 E28.98505
G0 F10500 X194.662 Y165.639
;TYPE:WALL-OUTER
G1 F2220 X195.029 Y166.169 E28.99175
G1 X195.361 Y166.705 E28.99830
G1 X195.659 Y167.247 E29.00474
G1 X195.933 Y167.807 E29.01122
G1 X196.176 Y168.374 E29.01763
G1 X196.423 Y169.039 E29.02501
G1 X196.573 Y169.523 E29.03028
G1 X196.726 Y170.100 E29.03648
G1 X196.849 Y170.675 E29.04260
G1 X196.932 Y171.178 E29.04790
G1 X197.018 Y171.879 E29.05524
G1 X197.064 Y172.576 E29.06251
G1 X197.072 Y173.114 E29.06810
G1 X197.057 Y173.627 E29.07344
G1 X197.013 Y174.237 E29.07980
G1 X196.859 Y175.324 E29.09121
G1 X196.735 Y175.907 E29.09741
G1 X196.604 Y176.405 E29.10277
G1 X196.356 Y177.198 E29.11141
G1 X196.172 Y177.681 E29.11678
G1 X195.916 Y178.272 E29.12348
G1 X195.640 Y178.835 E29.13000
G1 X195.329 Y179.392 E29.13663
G1 X194.998 Y179.920 E29.14311
G1 X194.630 Y180.449 E29.14981
G1 X194.181 Y181.026 E29.15741
G1 X193.828 Y181.430 E29.16299
G1 X193.380 Y181.899 E29.16974
G1 X192.842 Y182.407 E29.17743
G1 X192.435 Y182.747 E29.18294
G1 X191.925 Y183.139 E29.18963
G1 X191.401 Y183.503 E29.19627
G1 X190.864 Y183.835 E29.20283
G1 X190.322 Y184.133 E29.20926
G1 X189.762 Y184.406 E29.21574
G1 X189.188 Y184.653 E29.22224
G1 X188.524 Y184.899 E29.22960
G1 X188.042 Y185.048 E29.23485
G1 X187.469 Y185.200 E29.24101
G1 X186.894 Y185.323 E29.24713
G1 X186.387 Y185.406 E29.25247
G1 X185.688 Y185.492 E29.25979
G1 X185.089 Y185.533 E29.26603
G1 X184.547 Y185.546 E29.27167
G1 X184.038 Y185.533 E29.27697
G1 X183.325 Y185.486 E29.28440
G1 X182.150 Y185.314 E29.29674
G1 X181.654 Y185.207 E29.30202
G1 X181.161 Y185.077 E29.30732
G1 X180.371 Y184.830 E29.31593
G1 X179.888 Y184.646 E29.32130
G1 X179.297 Y184.390 E29.32800
G1 X178.733 Y184.113 E29.33453
G1 X178.177 Y183.803 E29.34115
G1 X177.648 Y183.472 E29.34764
G1 X177.120 Y183.104 E29.35433
G1 X176.543 Y182.655 E29.36193
G1 X176.139 Y182.302 E29.36751
G1 X175.670 Y181.854 E29.37426
G1 X175.166 Y181.319 E29.38190
G1 X174.816 Y180.903 E29.38755
G1 X174.428 Y180.397 E29.39418
G1 X174.066 Y179.874 E29.40080
G1 X173.734 Y179.338 E29.40735
G1 X173.435 Y178.796 E29.41379
G1 X173.162 Y178.236 E29.42027
G1 X172.916 Y177.661 E29.42677
G1 X172.669 Y176.995 E29.43416
G1 X172.520 Y176.513 E29.43940
G1 X172.367 Y175.935 E29.44562
G1 X172.246 Y175.368 E29.45165
G1 X172.162 Y174.858 E29.45702
G1 X172.075 Y174.154 E29.46440
G1 X172.036 Y173.563 E29.47056
G1 X172.022 Y173.026 E29.47614
G1 X172.036 Y172.512 E29.48149
G1 X172.082 Y171.805 E29.48886
G1 X172.254 Y170.623 E29.50128
G1 X172.359 Y170.136 E29.50646
G1 X172.491 Y169.638 E29.51181
G1 X172.739 Y168.845 E29.52045
G1 X172.923 Y168.362 E29.52583
G1 X173.179 Y167.770 E29.53253
G1 X173.455 Y167.208 E29.53905
G1 X173.766 Y166.651 E29.54568
G1 X174.097 Y166.122 E29.55217
G1 X174.465 Y165.594 E29.55886
G1 X174.914 Y165.017 E29.56646
G1 X175.267 Y164.613 E29.57204
G1 X175.715 Y164.144 E29.57878
G1 X176.249 Y163.640 E29.58642
G1 X176.660 Y163.295 E29.59200
G1 X177.165 Y162.907 E29.59862
G1 X177.695 Y162.540 E29.60532
G1 X178.231 Y162.208 E29.61188
G1 X178.773 Y161.909 E29.61832
G1 X179.333 Y161.636 E29.62479
G1 X179.908 Y161.390 E29.63130
G1 X180.571 Y161.144 E29.63865
G1 X181.056 Y160.994 E29.64393
G1 X181.719 Y160.820 E29.65106
G1 X182.202 Y160.719 E29.65619
G1 X182.712 Y160.635 E29.66156
G1 X183.407 Y160.550 E29.66884
G1 X184.006 Y160.510 E29.67509
G1 X184.547 Y160.496 E29.68071
G1 X185.056 Y160.509 E29.68601
G1 X185.771 Y160.557 E29.69346
G1 X186.850 Y160.710 E29.70479
G1 X187.433 Y160.833 E29.71099
G1 X187.934 Y160.966 E29.71638
G1 X188.724 Y161.213 E29.72498
G1 X189.207 Y161.397 E29.73036
G1 X189.798 Y161.653 E29.73705
G1 X190.361 Y161.929 E29.74357
G1 X190.918 Y162.240 E29.75021
G1 X191.446 Y162.571 E29.75669
G1 X191.975 Y162.939 E29.76339
G1 X192.552 Y163.388 E29.77099
G1 X192.956 Y163.741 E29.77657
G1 X193.425 Y164.189 E29.78331
G1 X193.936 Y164.730 E29.79105
G1 X194.273 Y165.134 E29.79652
G1 X194.662 Y165.639 E29.80315
G0 F10500 X193.984 Y166.109
;TYPE:SKIN
G1 F2820 X177.634 Y182.459 E30.04358
G0 F10500 X177.355 Y182.244
G1 F2820 X193.769 Y165.829 E30.28496
G0 F10500 X193.549 Y165.554
G1 F2820 X177.077 Y182.026 E30.52718
G0 F10500 X176.812 Y181.796
G1 F2820 X193.322 Y165.286 E30.76996
G0 F10500 X193.085 Y165.028
G1 F2820 X176.553 Y181.560 E31.01307
G0 F10500 X176.300 Y181.318
G1 F2820 X192.844 Y164.774 E31.25635
G0 F10500 X192.593 Y164.531
G1 F2820 X176.058 Y181.065 E31.49949
G0 F10500 X175.819 Y180.810
G1 F2820 X192.336 Y164.292 E31.74239
G0 F10500 X192.072 Y164.062
G1 F2820 X175.591 Y180.542 E31.98473
G0 F10500 X175.368 Y180.270
G1 F2820 X191.796 Y163.843 E32.22630
G0 F10500 X191.518 Y163.625
G1 F2820 X175.153 Y179.990 E32.46695
G0 F10500 X174.948 Y179.701
G1 F2820 X191.227 Y163.421 E32.70635
G0 F10500 X190.932 Y163.221
G1 F2820 X174.747 Y179.407 E32.94436
G0 F10500 X174.557 Y179.101
G1 F2820 X190.629 Y163.029 E33.18070
G0 F10500 X190.317 Y162.846
G1 F2820 X174.373 Y178.791 E33.41516
G0 F10500 X174.197 Y178.472
G1 F2820 X189.999 Y162.669 E33.64754
G0 F10500 X189.667 Y162.506
G1 F2820 X174.032 Y178.142 E33.87747
G0 F10500 X173.874 Y177.805
G1 F2820 X189.329 Y162.349 E34.10474
G0 F10500 X188.978 Y162.206
G1 F2820 X173.725 Y177.459 E34.32904
G0 F10500 X173.587 Y177.101
G1 F2820 X188.627 Y162.061 E34.55020
G0 F10500 X188.260 Y161.933
G1 F2820 X173.454 Y176.740 E34.76794
G0 F10500 X173.343 Y176.355
G1 F2820 X187.878 Y161.821 E34.98167
G0 F10500 X187.495 Y161.708
G1 F2820 X173.234 Y175.970 E35.19139
G0 F10500 X173.133 Y175.576
G1 F2820 X187.105 Y161.604 E35.39685
G0 F10500 X186.696 Y161.518
G1 F2820 X173.046 Y175.168 E35.59757
G0 F10500 X172.986 Y174.733
G1 F2820 X186.263 Y161.456 E35.79281
G0 F10500 X185.829 Y161.395
G1 F2820 X172.925 Y174.298 E35.98256
G0 F10500 X172.880 Y173.849
G1 F2820 X185.370 Y161.359 E36.16623
G0 F10500 X184.897 Y161.337
G1 F2820 X172.855 Y173.379 E36.34331
G0 F10500 X172.852 Y172.886
G1 F2820 X184.416 Y161.322 E36.51336
G0 F10500 X183.903 Y161.341
G1 F2820 X172.877 Y172.367 E36.67550
G0 F10500 X172.905 Y171.844
G1 F2820 X183.365 Y161.384 E36.82931
G0 F10500 X182.800 Y161.454
G1 F2820 X172.990 Y171.264 E36.97357
G0 F10500 X173.084 Y170.675
G1 F2820 X182.191 Y161.568 E37.10749
G0 F10500 X181.539 Y161.725
G1 F2820 X173.251 Y170.013 E37.22937
G0 F10500 X173.458 Y169.311
G1 F2820 X180.849 Y161.920 E37.33805
G0 F10500 X180.052 Y162.223
G1 F2820 X173.763 Y168.511 E37.43053
G0 F10500 X174.177 Y167.602
G1 F2820 X179.126 Y162.653 E37.50330
G0 F10500 X177.857 Y163.427
G1 F2820 X174.953 Y166.331 E37.54601
G0 F10500 X177.926 Y182.662
G1 F2820 X194.187 Y166.401 E37.78513
G0 F10500 X194.386 Y166.697
G1 F2820 X178.223 Y182.860 E38.02281
G0 F10500 X178.528 Y183.050
G1 F2820 X194.575 Y167.003 E38.25878
G0 F10500 X194.757 Y167.317
G1 F2820 X178.842 Y183.231 E38.49281
G0 F10500 X179.163 Y183.405
G1 F2820 X194.931 Y167.637 E38.72468
G0 F10500 X195.094 Y167.969
G1 F2820 X179.494 Y183.569 E38.95408
G0 F10500 X179.836 Y183.722
G1 F2820 X195.251 Y168.307 E39.18076
G0 F10500 X195.399 Y168.654
G1 F2820 X180.187 Y183.866 E39.40445
G0 F10500 X180.538 Y184.010
G1 F2820 X195.534 Y169.014 E39.62497
G0 F10500 X195.663 Y169.380
G1 F2820 X180.908 Y184.135 E39.84195
G0 F10500 X181.285 Y184.252
G1 F2820 X195.773 Y169.765 E40.05499
G0 F10500 X195.884 Y170.149
G1 F2820 X181.679 Y184.354 E40.26388
G0 F10500 X182.077 Y184.450
G1 F2820 X195.978 Y170.549 E40.46829
G0 F10500 X196.059 Y170.964
G1 F2820 X182.490 Y184.532 E40.66782
G0 F10500 X182.922 Y184.595
G1 F2820 X196.119 Y171.399 E40.86188
G0 F10500 X196.179 Y171.834
G1 F2820 X183.354 Y184.659 E41.05047
G0 F10500 X183.822 Y184.686
G1 F2820 X196.219 Y172.289 E41.23277
G0 F10500 X196.242 Y172.761
G1 F2820 X184.294 Y184.709 E41.40847
G0 F10500 X184.781 Y184.716
G1 F2820 X196.239 Y173.258 E41.57696
G0 F10500 X196.212 Y173.781
G1 F2820 X185.299 Y184.694 E41.73744
G0 F10500 X185.849 Y184.639
G1 F2820 X196.174 Y174.314 E41.88927
G0 F10500 X196.094 Y174.889
G1 F2820 X186.424 Y184.559 E42.03147
G0 F10500 X187.025 Y184.453
G1 F2820 X195.978 Y175.499 E42.16313
G0 F10500 X195.798 Y176.174
G1 F2820 X187.693 Y184.279 E42.28231
G0 F10500 X188.402 Y184.065
G1 F2820 X195.592 Y176.876 E42.38804
G0 F10500 X195.259 Y177.704
G1 F2820 X189.220 Y183.743 E42.47684
G0 F10500 X190.197 Y183.260
G1 F2820 X194.788 Y178.669 E42.54435
G0 F10500 X193.875 Y180.078
G1 F2820 X191.613 Y182.340 E42.57762
;LAYER:2
M106 S94
G0 F10500 X191.916 Y182.269 Z0.720
;TYPE:WALL-INNER
G1 F3300 X191.426 Y182.640 E42.58401
G1 X190.949 Y182.964 E42.59000
G1 X190.436 Y183.276 E42.59625
G1 X189.899 Y183.566 E42.60259
G1 X189.391 Y183.809 E42.60845
G1 X188.840 Y184.040 E42.61466
G1 X188.302 Y184.235 E42.62061
G1 X187.774 Y184.398 E42.62636
G1 X187.214 Y184.541 E42.63237
G1 X186.656 Y184.657 E42.63829
G1 X186.113 Y184.742 E42.64401
G1 X185.520 Y184.806 E42.65021
G1 X184.985 Y184.838 E42.65578
G1 X184.561 Y184.845 E42.66019
G1 X183.818 Y184.821 E42.66792
G1 X183.256 Y184.775 E42.67378
G1 X182.726 Y184.705 E42.67934
G1 X182.149 Y184.599 E42.68544
G1 X181.439 Y184.426 E42.69304
G1 X180.608 Y184.171 E42.70208
G1 X180.064 Y183.963 E42.70814
G1 X179.495 Y183.712 E42.71460
G1 X178.975 Y183.451 E42.72065
G1 X178.457 Y183.157 E42.72685
G1 X177.943 Y182.830 E42.73318
G1 X177.464 Y182.490 E42.73929
G1 X176.990 Y182.116 E42.74557
G1 X176.527 Y181.710 E42.75197
G1 X176.097 Y181.293 E42.75820
G1 X175.695 Y180.861 E42.76433
G1 X175.293 Y180.382 E42.77084
G1 X174.936 Y179.910 E42.77699
G1 X174.605 Y179.423 E42.78311
G1 X174.289 Y178.903 E42.78944
G1 X174.005 Y178.380 E42.79563
G1 X173.756 Y177.858 E42.80164
G1 X173.532 Y177.322 E42.80768
G1 X173.334 Y176.776 E42.81372
G1 X173.170 Y176.243 E42.81952
G1 X173.026 Y175.680 E42.82556
G1 X172.911 Y175.125 E42.83146
G1 X172.827 Y174.589 E42.83710
G1 X172.764 Y174.011 E42.84314
G1 X172.730 Y173.428 E42.84922
G1 X172.722 Y173.015 E42.85351
G1 X172.746 Y172.312 E42.86083
G1 X172.794 Y171.730 E42.86690
G1 X172.863 Y171.205 E42.87240
G1 X172.969 Y170.626 E42.87852
G1 X173.141 Y169.918 E42.88610
G1 X173.400 Y169.078 E42.89524
G1 X173.609 Y168.530 E42.90134
G1 X173.850 Y167.984 E42.90754
G1 X174.122 Y167.442 E42.91385
G1 X174.412 Y166.931 E42.91996
G1 X174.739 Y166.417 E42.92629
G1 X175.081 Y165.935 E42.93244
G1 X175.453 Y165.464 E42.93868
G1 X175.859 Y165.001 E42.94508
G1 X176.267 Y164.580 E42.95118
G1 X176.727 Y164.152 E42.95771
G1 X177.176 Y163.775 E42.96381
G1 X177.659 Y163.410 E42.97010
G1 X178.146 Y163.079 E42.97623
G1 X178.666 Y162.763 E42.98255
G1 X179.189 Y162.479 E42.98874
G1 X179.711 Y162.230 E42.99476
G1 X180.247 Y162.006 E43.00080
G1 X180.793 Y161.808 E43.00684
G1 X181.326 Y161.644 E43.01263
G1 X182.002 Y161.475 E43.01988
G1 X182.718 Y161.344 E43.02745
G1 X183.433 Y161.251 E43.03495
G1 X183.986 Y161.212 E43.04071
G1 X184.557 Y161.196 E43.04665
G1 X185.257 Y161.220 E43.05393
G1 X185.837 Y161.267 E43.05998
G1 X186.374 Y161.339 E43.06562
G1 X186.943 Y161.443 E43.07163
G1 X187.651 Y161.615 E43.07921
G1 X188.491 Y161.874 E43.08835
G1 X189.031 Y162.080 E43.09436
G1 X189.600 Y162.331 E43.10082
G1 X190.120 Y162.592 E43.10687
G1 X190.643 Y162.889 E43.11313
G1 X191.142 Y163.207 E43.11928
G1 X191.635 Y163.556 E43.12556
G1 X192.105 Y163.927 E43.13179
G1 X192.568 Y164.333 E43.13819
G1 X192.989 Y164.741 E43.14429
G1 X193.407 Y165.190 E43.15067
G1 X193.795 Y165.653 E43.15695
G1 X194.166 Y166.143 E43.16334
G1 X194.490 Y166.620 E43.16933
G1 X194.802 Y167.133 E43.17558
G1 X195.084 Y167.655 E43.18175
G1 X195.349 Y168.208 E43.18812
G1 X195.563 Y168.721 E43.19390
G1 X195.761 Y169.267 E43.19994
G1 X195.922 Y169.789 E43.20562
G1 X196.067 Y170.355 E43.21170
G1 X196.184 Y170.918 E43.21768
G1 X196.267 Y171.447 E43.22324
G1 X196.333 Y172.059 E43.22964
G1 X196.364 Y172.579 E43.23506
G1 X196.372 Y173.018 E43.23963
G1 X196.336 Y173.888 E43.24868
G1 X196.265 Y174.605 E43.25617
G1 X196.181 Y175.143 E43.26183
G1 X196.063 Y175.703 E43.26779
G1 X195.919 Y176.253 E43.27370
G1 X195.695 Y176.966 E43.28147
G1 X195.489 Y177.505 E43.28747
G1 X195.238 Y178.074 E43.29394
G1 X194.977 Y178.594 E43.29999
G1 X194.680 Y179.117 E43.30624
G1 X194.362 Y179.616 E43.31239
G1 X194.014 Y180.107 E43.31865
G1 X193.642 Y180.579 E43.32490
G1 X193.236 Y181.042 E43.33130
G1 X192.828 Y181.463 E43.33740
G1 X192.379 Y181.881 E43.34378
G1 X191.916 Y182.269 E43.35006
G0 F10500 X192.141 Y182.537
G1 F3300 X191.630 Y182.924 E43.35672
G1 X191.134 Y183.261 E43.36296
G1 X190.613 Y183.578 E43.36930
G1 X190.067 Y183.872 E43.37575
G1 X189.520 Y184.134 E43.38205
G1 X188.965 Y184.367 E43.38831
G1 X188.428 Y184.562 E43.39425
G1 X187.860 Y184.737 E43.40043
G1 X187.287 Y184.884 E43.40658
G1 X186.740 Y184.997 E43.41239
G1 X186.141 Y185.091 E43.41870
G1 X185.558 Y185.154 E43.42479
G1 X184.988 Y185.188 E43.43073
G1 X184.555 Y185.196 E43.43524
G1 X183.800 Y185.171 E43.44309
G1 X183.220 Y185.124 E43.44914
G1 X182.658 Y185.049 E43.45504
G1 X182.089 Y184.944 E43.46105
G1 X181.354 Y184.766 E43.46892
G1 X180.486 Y184.499 E43.47836
G1 X179.921 Y184.283 E43.48465
G1 X179.354 Y184.033 E43.49109
G1 X178.802 Y183.756 E43.49751
G1 X178.277 Y183.457 E43.50380
G1 X177.760 Y183.129 E43.51016
G1 X177.247 Y182.765 E43.51670
G1 X176.769 Y182.388 E43.52303
G1 X176.301 Y181.978 E43.52950
G1 X175.840 Y181.531 E43.53618
G1 X175.428 Y181.087 E43.54248
G1 X175.017 Y180.598 E43.54912
G1 X174.647 Y180.107 E43.55551
G1 X174.308 Y179.608 E43.56179
G1 X173.991 Y179.087 E43.56813
G1 X173.695 Y178.541 E43.57459
G1 X173.431 Y177.988 E43.58096
G1 X173.205 Y177.447 E43.58705
G1 X173.007 Y176.901 E43.59309
G1 X172.832 Y176.333 E43.59927
G1 X172.684 Y175.756 E43.60547
G1 X172.572 Y175.214 E43.61122
G1 X172.477 Y174.609 E43.61759
G1 X172.413 Y174.021 E43.62374
G1 X172.381 Y173.463 E43.62955
G1 X172.372 Y173.029 E43.63407
G1 X172.398 Y172.272 E43.64194
G1 X172.446 Y171.685 E43.64807
G1 X172.520 Y171.128 E43.65391
G1 X172.623 Y170.565 E43.65986
G1 X172.799 Y169.840 E43.66762
G1 X173.071 Y168.956 E43.67723
G1 X173.281 Y168.408 E43.68334
G1 X173.537 Y167.826 E43.68995
G1 X173.818 Y167.267 E43.69645
G1 X174.107 Y166.758 E43.70254
G1 X174.436 Y166.239 E43.70893
G1 X174.804 Y165.721 E43.71554
G1 X175.177 Y165.248 E43.72180
G1 X175.591 Y164.775 E43.72834
G1 X176.038 Y164.314 E43.73501
G1 X176.494 Y163.890 E43.74149
G1 X176.956 Y163.502 E43.74776
G1 X177.455 Y163.126 E43.75426
G1 X177.961 Y162.782 E43.76062
G1 X178.482 Y162.465 E43.76696
G1 X179.028 Y162.169 E43.77342
G1 X179.581 Y161.905 E43.77979
G1 X180.122 Y161.679 E43.78589
G1 X180.667 Y161.481 E43.79192
G1 X181.241 Y161.304 E43.79816
G1 X181.941 Y161.130 E43.80566
G1 X182.649 Y161.000 E43.81315
G1 X183.398 Y160.903 E43.82100
G1 X183.973 Y160.862 E43.82700
G1 X184.543 Y160.846 E43.83292
G1 X185.296 Y160.872 E43.84076
G1 X185.875 Y160.919 E43.84680
G1 X186.426 Y160.993 E43.85258
G1 X187.020 Y161.101 E43.85886
G1 X187.736 Y161.275 E43.86652
G1 X188.613 Y161.545 E43.87606
G1 X189.174 Y161.760 E43.88231
G1 X189.741 Y162.010 E43.88875
G1 X190.293 Y162.287 E43.89517
G1 X190.810 Y162.581 E43.90136
G1 X191.343 Y162.920 E43.90793
G1 X191.848 Y163.278 E43.91436
G1 X192.326 Y163.655 E43.92069
G1 X192.794 Y164.065 E43.92716
G1 X193.255 Y164.512 E43.93384
G1 X193.665 Y164.953 E43.94010
G1 X194.067 Y165.433 E43.94661
G1 X194.450 Y165.939 E43.95321
G1 X194.787 Y166.435 E43.95945
G1 X195.101 Y166.951 E43.96573
G1 X195.403 Y167.510 E43.97233
G1 X195.661 Y168.047 E43.97853
G1 X195.890 Y168.596 E43.98471
G1 X196.088 Y169.141 E43.99074
G1 X196.261 Y169.702 E43.99685
G1 X196.411 Y170.287 E44.00313
G1 X196.522 Y170.821 E44.00880
G1 X196.618 Y171.434 E44.01525
G1 X196.681 Y172.021 E44.02139
G1 X196.714 Y172.573 E44.02714
G1 X196.722 Y173.009 E44.03167
G1 X196.684 Y173.936 E44.04132
G1 X196.616 Y174.624 E44.04851
G1 X196.523 Y175.212 E44.05470
G1 X196.404 Y175.779 E44.06072
G1 X196.252 Y176.362 E44.06699
G1 X196.026 Y177.080 E44.07481
G1 X195.809 Y177.648 E44.08114
G1 X195.559 Y178.214 E44.08757
G1 X195.282 Y178.767 E44.09400
G1 X194.988 Y179.284 E44.10019
G1 X194.649 Y179.817 E44.10675
G1 X194.291 Y180.322 E44.11319
G1 X193.918 Y180.795 E44.11945
G1 X193.509 Y181.263 E44.12592
G1 X193.060 Y181.726 E44.13262
G1 X192.616 Y182.139 E44.13893
G1 X192.141 Y182.537 E44.14537
G0 F10500 X192.356 Y182.814
;TYPE:WALL-OUTER
G1 F2700 X191.841 Y183.203 E44.15208
G1 X191.324 Y183.555 E44.15859
G1 X190.777 Y183.887 E44.16524
G1 X190.229 Y184.183 E44.17172
G1 X189.666 Y184.452 E44.17820
G1 X189.097 Y184.691 E44.18462
G1 X188.526 Y184.898 E44.19094
G1 X187.954 Y185.074 E44.19716
G1 X187.369 Y185.224 E44.20344
G1 X186.802 Y185.342 E44.20946
G1 X186.192 Y185.438 E44.21588
G1 X185.594 Y185.502 E44.22214
G1 X184.995 Y185.538 E44.22838
G1 X184.550 Y185.546 E44.23300
G1 X183.786 Y185.521 E44.24095
G1 X183.186 Y185.472 E44.24721
G1 X182.606 Y185.395 E44.25330
G1 X182.011 Y185.286 E44.25959
G1 X181.252 Y185.101 E44.26771
G1 X180.378 Y184.832 E44.27722
G1 X179.795 Y184.609 E44.28371
G1 X179.204 Y184.349 E44.29042
G1 X178.643 Y184.068 E44.29695
G1 X178.097 Y183.757 E44.30348
G1 X177.555 Y183.413 E44.31016
G1 X177.037 Y183.045 E44.31676
G1 X176.543 Y182.655 E44.32331
G1 X176.062 Y182.234 E44.32995
G1 X175.596 Y181.782 E44.33670
G1 X175.166 Y181.319 E44.34327
G1 X174.749 Y180.823 E44.35001
G1 X174.366 Y180.316 E44.35662
G1 X174.014 Y179.798 E44.36313
G1 X173.682 Y179.251 E44.36978
G1 X173.383 Y178.700 E44.37630
G1 X173.115 Y178.139 E44.38277
G1 X172.877 Y177.570 E44.38918
G1 X172.669 Y176.996 E44.39553
G1 X172.495 Y176.428 E44.40171
G1 X172.345 Y175.843 E44.40799
G1 X172.227 Y175.276 E44.41401
G1 X172.131 Y174.663 E44.42046
G1 X172.065 Y174.059 E44.42678
G1 X172.031 Y173.469 E44.43292
G1 X172.022 Y173.027 E44.43752
G1 X172.048 Y172.260 E44.44550
G1 X172.096 Y171.665 E44.45171
G1 X172.174 Y171.079 E44.45785
G1 X172.281 Y170.491 E44.46407
G1 X172.464 Y169.737 E44.47214
G1 X172.739 Y168.845 E44.48184
G1 X172.960 Y168.267 E44.48828
G1 X173.216 Y167.685 E44.49489
G1 X173.501 Y167.117 E44.50150
G1 X173.812 Y166.571 E44.50803
G1 X174.156 Y166.029 E44.51470
G1 X174.524 Y165.511 E44.52131
G1 X174.914 Y165.017 E44.52786
G1 X175.335 Y164.536 E44.53450
G1 X175.787 Y164.070 E44.54125
G1 X176.255 Y163.634 E44.54790
G1 X176.738 Y163.229 E44.55446
G1 X177.246 Y162.845 E44.56108
G1 X177.771 Y162.488 E44.56768
G1 X178.318 Y162.156 E44.57434
G1 X178.869 Y161.857 E44.58085
G1 X179.430 Y161.589 E44.58732
G1 X179.992 Y161.354 E44.59365
G1 X180.569 Y161.145 E44.60003
G1 X181.144 Y160.968 E44.60629
G1 X181.863 Y160.789 E44.61399
G1 X182.604 Y160.653 E44.62183
G1 X183.362 Y160.554 E44.62978
G1 X183.957 Y160.512 E44.63598
G1 X184.546 Y160.496 E44.64211
G1 X185.309 Y160.522 E44.65004
G1 X185.909 Y160.571 E44.65630
G1 X186.489 Y160.648 E44.66239
G1 X187.081 Y160.756 E44.66864
G1 X187.837 Y160.940 E44.67674
G1 X188.721 Y161.212 E44.68635
G1 X189.301 Y161.434 E44.69281
G1 X189.891 Y161.694 E44.69951
G1 X190.452 Y161.975 E44.70604
G1 X190.998 Y162.286 E44.71257
G1 X191.539 Y162.630 E44.71924
G1 X192.058 Y162.998 E44.72585
G1 X192.552 Y163.388 E44.73240
G1 X193.033 Y163.809 E44.73905
G1 X193.499 Y164.261 E44.74580
G1 X193.935 Y164.729 E44.75245
G1 X194.340 Y165.213 E44.75901
G1 X194.729 Y165.728 E44.76572
G1 X195.081 Y166.245 E44.77222
G1 X195.413 Y166.792 E44.77888
G1 X195.707 Y167.336 E44.78531
G1 X195.980 Y167.905 E44.79187
G1 X196.215 Y168.466 E44.79819
G1 X196.423 Y169.038 E44.80452
G1 X196.600 Y169.615 E44.81080
G1 X196.750 Y170.200 E44.81708
G1 X196.868 Y170.767 E44.82310
G1 X196.963 Y171.372 E44.82947
G1 X197.028 Y171.975 E44.83577
G1 X197.064 Y172.567 E44.84194
G1 X197.072 Y173.014 E44.84659
G1 X197.034 Y173.951 E44.85634
G1 X196.962 Y174.679 E44.86395
G1 X196.868 Y175.276 E44.87023
G1 X196.746 Y175.858 E44.87641
G1 X196.590 Y176.453 E44.88281
G1 X196.357 Y177.195 E44.89090
G1 X196.135 Y177.775 E44.89736
G1 X195.875 Y178.365 E44.90406
G1 X195.594 Y178.926 E44.91058
G1 X195.283 Y179.472 E44.91712
G1 X194.939 Y180.013 E44.92378
G1 X194.571 Y180.532 E44.93040
G1 X194.181 Y181.026 E44.93694
G1 X193.760 Y181.507 E44.94359
G1 X193.308 Y181.973 E44.95034
G1 X192.842 Y182.408 E44.95697
G1 X192.356 Y182.814 E44.96355
G0 F10500 X191.830 Y182.178
;TYPE:SKIN
G1 F3900 X175.390 Y165.738 E45.20531
G0 F10500 X175.613 Y165.466
G1 F3900 X192.100 Y181.953 E45.44775
G0 F10500 X192.365 Y181.723
G1 F3900 X175.844 Y165.202 E45.69070
G0 F10500 X176.083 Y164.946
G1 F3900 X192.621 Y181.484 E45.93389
G0 F10500 X192.871 Y181.239
G1 F3900 X176.326 Y164.694 E46.17719
G0 F10500 X176.582 Y164.455
G1 F3900 X193.115 Y180.988 E46.42031
G0 F10500 X193.348 Y180.726
G1 F3900 X176.839 Y164.217 E46.66307
G0 F10500 X177.109 Y163.992
G1 F3900 X193.578 Y180.461 E46.90525
G0 F10500 X193.796 Y180.184
G1 F3900 X177.384 Y163.773 E47.14659
G0 F10500 X177.666 Y163.560
G1 F3900 X194.008 Y179.902 E47.38690
G0 F10500 X194.213 Y179.612
G1 F3900 X177.958 Y163.356 E47.62594
G0 F10500 X178.254 Y163.157
G1 F3900 X194.409 Y179.312 E47.86350
G0 F10500 X194.600 Y179.009
G1 F3900 X178.562 Y162.970 E48.09935
G0 F10500 X178.876 Y162.789
G1 F3900 X194.779 Y178.692 E48.33321
G0 F10500 X194.952 Y178.370
G1 F3900 X179.197 Y162.615 E48.56489
G0 F10500 X179.530 Y162.453
G1 F3900 X195.117 Y178.041 E48.79410
G0 F10500 X195.269 Y177.698
G1 F3900 X179.868 Y162.297 E49.02058
G0 F10500 X175.172 Y166.015
G1 F3900 X191.548 Y182.391 E49.26139
G0 F10500 X191.262 Y182.600
G1 F3900 X174.967 Y166.305 E49.50101
G0 F10500 X174.767 Y166.600
G1 F3900 X190.967 Y182.800 E49.73923
G0 F10500 X190.664 Y182.992
G1 F3900 X174.574 Y166.902 E49.97584
G0 F10500 X174.391 Y167.214
G1 F3900 X190.355 Y183.178 E50.21059
G0 F10500 X190.034 Y183.352
G1 F3900 X174.212 Y167.530 E50.44326
G0 F10500 X174.047 Y167.860
G1 F3900 X189.706 Y183.519 E50.67353
G0 F10500 X189.371 Y183.679
G1 F3900 X173.889 Y168.197 E50.90119
G0 F10500 X173.737 Y168.540
G1 F3900 X189.025 Y183.827 E51.12600
G0 F10500 X188.670 Y183.968
G1 F3900 X173.599 Y168.897 E51.34762
G0 F10500 X173.470 Y169.262
G1 F3900 X188.308 Y184.100 E51.56581
G0 F10500 X187.932 Y184.219
G1 F3900 X173.353 Y169.641 E51.78019
G0 F10500 X173.239 Y170.022
G1 F3900 X187.545 Y184.327 E51.99056
G0 F10500 X187.150 Y184.428
G1 F3900 X173.143 Y170.421 E52.19653
G0 F10500 X173.055 Y170.827
G1 F3900 X186.739 Y184.512 E52.39777
G0 F10500 X186.317 Y184.585
G1 F3900 X172.980 Y171.248 E52.59389
G0 F10500 X172.922 Y171.685
G1 F3900 X185.880 Y184.643 E52.78444
G0 F10500 X185.429 Y184.687
G1 F3900 X172.881 Y172.139 E52.96896
G0 F10500 X172.857 Y172.610
G1 F3900 X184.962 Y184.714 E53.14696
G0 F10500 X184.470 Y184.717
G1 F3900 X172.846 Y173.094 E53.31788
G0 F10500 X172.863 Y173.606
G1 F3900 X183.959 Y184.701 E53.48104
G0 F10500 X183.427 Y184.665
G1 F3900 X172.901 Y174.138 E53.63584
G0 F10500 X172.968 Y174.700
G1 F3900 X182.865 Y184.598 E53.78138
G0 F10500 X182.268 Y184.495
G1 F3900 X173.072 Y175.300 E53.91660
G0 F10500 X173.219 Y175.942
G1 F3900 X181.620 Y184.342 E54.04013
G0 F10500 X180.920 Y184.137
G1 F3900 X173.419 Y176.636 E54.15044
G0 F10500 X173.705 Y177.418
G1 F3900 X180.151 Y183.863 E54.24522
G0 F10500 X179.238 Y183.445
G1 F3900 X174.114 Y178.321 E54.32057
G0 F10500 X174.825 Y179.527
G1 F3900 X178.046 Y182.748 E54.36793
G0 F10500 X195.416 Y177.350
G1 F3900 X180.218 Y162.151 E54.59143
G0 F10500 X180.578 Y162.017
G1 F3900 X195.553 Y176.991 E54.81163
G0 F10500 X195.674 Y176.618
G1 F3900 X180.946 Y161.889 E55.02822
G0 F10500 X181.324 Y161.773
G1 F3900 X195.793 Y176.242 E55.24099
G0 F10500 X195.897 Y175.851
G1 F3900 X181.719 Y161.672 E55.44948
G0 F10500 X182.119 Y161.578
G1 F3900 X195.990 Y175.449 E55.65346
G0 F10500 X196.072 Y175.035
G1 F3900 X182.538 Y161.501 E55.85248
G0 F10500 X182.967 Y161.436
G1 F3900 X196.139 Y174.607 E56.04617
G0 F10500 X196.185 Y174.158
G1 F3900 X183.405 Y161.378 E56.23410
G0 F10500 X183.865 Y161.344
G1 F3900 X196.220 Y173.698 E56.41578
G0 F10500 X196.239 Y173.223
G1 F3900 X184.341 Y161.324 E56.59075
G0 F10500 X184.840 Y161.329
G1 F3900 X196.243 Y172.732 E56.75843
G0 F10500 X196.218 Y172.212
G1 F3900 X185.358 Y161.351 E56.91813
G0 F10500 X185.901 Y161.399
G1 F3900 X196.166 Y171.665 E57.06909
G0 F10500 X196.085 Y171.089
G1 F3900 X186.480 Y161.484 E57.21033
G0 F10500 X187.099 Y161.607
G1 F3900 X195.966 Y170.474 E57.34072
G0 F10500 X195.800 Y169.814
G1 F3900 X187.766 Y161.780 E57.45887
G0 F10500 X188.486 Y162.005
G1 F3900 X195.560 Y169.079 E57.56289
G0 F10500 X195.235 Y168.258
G1 F3900 X189.317 Y162.341 E57.64991
G0 F10500 X190.315 Y162.844
G1 F3900 X194.728 Y167.256 E57.71479
G0 F10500 X193.709 Y165.743
G1 F3900 X191.847 Y163.881 E57.74217
;LAYER:3
M106 S142
G0 F10500 X192.105 Y163.927 Z0.930
;TYPE:WALL-INNER
G1 F4020 X192.568 Y164.333 E57.74858
G1 X192.989 Y164.741 E57.75467
G1 X193.407 Y165.190 E57.76105
G1 X193.795 Y165.653 E57.76733
G1 X194.166 Y166.143 E57.77372
G1 X194.490 Y166.620 E57.77972
G1 X194.802 Y167.133 E57.78596
G1 X195.084 Y167.655 E57.79213
G1 X195.349 Y168.208 E57.79851
G1 X195.563 Y168.721 E57.80429
G1 X195.761 Y169.267 E57.81033
G1 X195.922 Y169.789 E57.81601
G1 X196.067 Y170.355 E57.82208
G1 X196.184 Y170.918 E57.82806
G1 X196.267 Y171.447 E57.83363
G1 X196.333 Y172.059 E57.84003
G1 X196.364 Y172.579 E57.84545
G1 X196.372 Y173.021 E57.85005
G1 X196.345 Y173.783 E57.85797
G1 X196.297 Y174.349 E57.86388
G1 X196.219 Y174.919 E57.86986
G1 X196.119 Y175.455 E57.87553
G1 X195.983 Y176.016 E57.88153
G1 X195.820 Y176.582 E57.88766
G1 X195.554 Y177.337 E57.89598
G1 X195.323 Y177.882 E57.90214
G1 X195.057 Y178.433 E57.90850
G1 X194.680 Y179.117 E57.91662
G1 X194.362 Y179.616 E57.92277
G1 X194.014 Y180.107 E57.92903
G1 X193.642 Y180.579 E57.93528
G1 X193.236 Y181.042 E57.94168
G1 X192.828 Y181.463 E57.94778
G1 X192.379 Y181.881 E57.95416
G1 X191.916 Y182.269 E57.96044
G1 X191.426 Y182.640 E57.96683
G1 X190.949 Y182.964 E57.97283
G1 X190.436 Y183.276 E57.97907
G1 X189.899 Y183.566 E57.98541
G1 X189.391 Y183.809 E57.99127
G1 X188.840 Y184.040 E57.99748
G1 X188.302 Y184.235 E58.00343
G1 X187.774 Y184.398 E58.00918
G1 X187.214 Y184.541 E58.01519
G1 X186.656 Y184.657 E58.02111
G1 X186.113 Y184.742 E58.02683
G1 X185.520 Y184.806 E58.03303
G1 X184.985 Y184.838 E58.03860
G1 X184.544 Y184.846 E58.04319
G1 X183.791 Y184.819 E58.05103
G1 X183.219 Y184.771 E58.05699
G1 X182.659 Y184.694 E58.06287
G1 X182.103 Y184.590 E58.06875
G1 X181.547 Y184.455 E58.07470
G1 X180.987 Y184.294 E58.08076
G1 X180.232 Y184.028 E58.08909
G1 X179.687 Y183.797 E58.09524
G1 X179.136 Y183.531 E58.10160
G1 X178.457 Y183.157 E58.10966
G1 X177.943 Y182.830 E58.11600
G1 X177.464 Y182.490 E58.12211
G1 X176.990 Y182.116 E58.12838
G1 X176.527 Y181.710 E58.13479
G1 X176.097 Y181.293 E58.14102
G1 X175.695 Y180.861 E58.14715
G1 X175.293 Y180.382 E58.15365
G1 X174.936 Y179.910 E58.15981
G1 X174.605 Y179.423 E58.16593
G1 X174.289 Y178.903 E58.17226
G1 X174.005 Y178.380 E58.17845
G1 X173.756 Y177.858 E58.18446
G1 X173.532 Y177.322 E58.19050
G1 X173.334 Y176.776 E58.19654
G1 X173.171 Y176.248 E58.20228
G1 X173.028 Y175.688 E58.20829
G1 X172.911 Y175.125 E58.21427
G1 X172.827 Y174.589 E58.21992
G1 X172.764 Y174.011 E58.22596
G1 X172.730 Y173.428 E58.23203
G1 X172.722 Y173.018 E58.23630
G1 X172.749 Y172.275 E58.24403
G1 X172.798 Y171.693 E58.25010
G1 X172.877 Y171.119 E58.25613
G1 X172.976 Y170.583 E58.26179
G1 X173.115 Y170.012 E58.26790
G1 X173.273 Y169.468 E58.27379
G1 X173.542 Y168.705 E58.28221
G1 X173.772 Y168.160 E58.28836
G1 X174.029 Y167.627 E58.29451
G1 X174.318 Y167.098 E58.30078
G1 X174.637 Y166.579 E58.30711
G1 X174.970 Y166.091 E58.31326
G1 X175.329 Y165.621 E58.31941
G1 X175.720 Y165.159 E58.32570
G1 X176.141 Y164.711 E58.33209
G1 X176.572 Y164.295 E58.33832
G1 X177.027 Y163.900 E58.34459
G1 X177.502 Y163.530 E58.35085
G1 X177.988 Y163.187 E58.35703
G1 X178.492 Y162.869 E58.36323
G1 X179.024 Y162.570 E58.36957
G1 X179.528 Y162.319 E58.37543
G1 X180.095 Y162.071 E58.38186
G1 X180.584 Y161.884 E58.38731
G1 X181.168 Y161.691 E58.39370
G1 X181.686 Y161.552 E58.39928
G1 X182.240 Y161.426 E58.40519
G1 X182.999 Y161.298 E58.41319
G1 X183.555 Y161.238 E58.41901
G1 X184.132 Y161.204 E58.42502
G1 X184.551 Y161.196 E58.42937
G1 X185.302 Y161.223 E58.43719
G1 X185.876 Y161.272 E58.44318
G1 X186.445 Y161.350 E58.44915
G1 X186.986 Y161.450 E58.45487
G1 X187.557 Y161.589 E58.46098
G1 X188.101 Y161.747 E58.46687
G1 X188.863 Y162.015 E58.47527
G1 X189.408 Y162.246 E58.48143
G1 X189.959 Y162.512 E58.48779
G1 X190.643 Y162.889 E58.49591
G1 X191.142 Y163.207 E58.50206
G1 X191.635 Y163.556 E58.50834
G1 X192.105 Y163.927 E58.51457
G0 F10500 X192.326 Y163.655
G1 F4020 X192.794 Y164.065 E58.52104
G1 X193.255 Y164.512 E58.52772
G1 X193.665 Y164.953 E58.53398
G1 X194.067 Y165.433 E58.54049
G1 X194.450 Y165.939 E58.54709
G1 X194.787 Y166.435 E58.55332
G1 X195.101 Y166.951 E58.55960
G1 X195.403 Y167.510 E58.56621
G1 X195.661 Y168.047 E58.57240
G1 X195.890 Y168.595 E58.57858
G1 X196.088 Y169.141 E58.58462
G1 X196.261 Y169.702 E58.59072
G1 X196.411 Y170.287 E58.59700
G1 X196.522 Y170.821 E58.60267
G1 X196.618 Y171.434 E58.60913
G1 X196.681 Y172.021 E58.61526
G1 X196.714 Y172.573 E58.62101
G1 X196.722 Y173.002 E58.62548
G1 X196.692 Y173.835 E58.63414
G1 X196.645 Y174.390 E58.63993
G1 X196.566 Y174.963 E58.64595
G1 X196.461 Y175.533 E58.65198
G1 X196.314 Y176.133 E58.65840
G1 X196.160 Y176.669 E58.66420
G1 X195.882 Y177.458 E58.67290
G1 X195.640 Y178.030 E58.67935
G1 X195.370 Y178.589 E58.68581
G1 X195.276 Y178.777 E58.68799
G1 X194.988 Y179.284 E58.69406
G1 X194.649 Y179.817 E58.70063
G1 X194.291 Y180.322 E58.70706
G1 X193.918 Y180.795 E58.71333
G1 X193.509 Y181.263 E58.71979
G1 X193.060 Y181.726 E58.72650
G1 X192.616 Y182.139 E58.73280
G1 X192.141 Y182.537 E58.73924
G1 X191.630 Y182.924 E58.74591
G1 X191.134 Y183.261 E58.75215
G1 X190.613 Y183.578 E58.75849
G1 X190.067 Y183.872 E58.76493
G1 X189.520 Y184.134 E58.77124
G1 X188.965 Y184.367 E58.77750
G1 X188.428 Y184.562 E58.78344
G1 X187.860 Y184.737 E58.78962
G1 X187.287 Y184.884 E58.79577
G1 X186.740 Y184.997 E58.80158
G1 X186.141 Y185.091 E58.80788
G1 X185.558 Y185.154 E58.81398
G1 X184.988 Y185.188 E58.81992
G1 X184.557 Y185.196 E58.82440
G1 X183.750 Y185.167 E58.83280
G1 X183.179 Y185.119 E58.83876
G1 X182.607 Y185.040 E58.84476
G1 X182.036 Y184.934 E58.85080
G1 X181.435 Y184.788 E58.85723
G1 X180.895 Y184.632 E58.86308
G1 X180.110 Y184.355 E58.87173
G1 X179.539 Y184.114 E58.87818
G1 X178.980 Y183.844 E58.88463
G1 X178.277 Y183.457 E58.89297
G1 X177.760 Y183.129 E58.89934
G1 X177.247 Y182.765 E58.90588
G1 X176.769 Y182.388 E58.91221
G1 X176.301 Y181.978 E58.91868
G1 X175.840 Y181.531 E58.92536
G1 X175.428 Y181.087 E58.93166
G1 X175.017 Y180.598 E58.93830
G1 X174.647 Y180.107 E58.94469
G1 X174.308 Y179.608 E58.95096
G1 X173.991 Y179.087 E58.95731
G1 X173.695 Y178.541 E58.96376
G1 X173.431 Y177.988 E58.97014
G1 X173.205 Y177.447 E58.97623
G1 X173.007 Y176.901 E58.98227
G1 X172.832 Y176.333 E58.98845
G1 X172.684 Y175.756 E58.99465
G1 X172.572 Y175.214 E59.00040
G1 X172.477 Y174.609 E59.00677
G1 X172.413 Y174.021 E59.01292
G1 X172.381 Y173.463 E59.01873
G1 X172.372 Y173.030 E59.02323
G1 X172.402 Y172.221 E59.03165
G1 X172.450 Y171.653 E59.03758
G1 X172.530 Y171.071 E59.04369
G1 X172.634 Y170.510 E59.04962
G1 X172.780 Y169.909 E59.05605
G1 X172.938 Y169.365 E59.06194
G1 X173.214 Y168.584 E59.07055
G1 X173.455 Y168.012 E59.07701
G1 X173.716 Y167.470 E59.08326
G1 X174.022 Y166.910 E59.08990
G1 X174.343 Y166.387 E59.09628
G1 X174.676 Y165.900 E59.10241
G1 X175.059 Y165.398 E59.10898
G1 X175.464 Y164.920 E59.11549
G1 X175.890 Y164.466 E59.12197
G1 X176.325 Y164.047 E59.12825
G1 X176.808 Y163.628 E59.13490
G1 X177.303 Y163.241 E59.14143
G1 X177.794 Y162.896 E59.14767
G1 X178.313 Y162.568 E59.15405
G1 X178.853 Y162.265 E59.16049
G1 X179.396 Y161.994 E59.16680
G1 X179.950 Y161.752 E59.17309
G1 X180.482 Y161.548 E59.17901
G1 X181.053 Y161.359 E59.18527
G1 X181.603 Y161.212 E59.19119
G1 X182.173 Y161.082 E59.19727
G1 X182.955 Y160.951 E59.20551
G1 X183.536 Y160.888 E59.21159
G1 X184.106 Y160.855 E59.21752
G1 X184.538 Y160.846 E59.22202
G1 X185.343 Y160.875 E59.23039
G1 X185.917 Y160.924 E59.23638
G1 X186.489 Y161.003 E59.24239
G1 X187.059 Y161.108 E59.24841
G1 X187.652 Y161.252 E59.25476
G1 X188.204 Y161.412 E59.26074
G1 X188.985 Y161.688 E59.26935
G1 X189.556 Y161.929 E59.27579
G1 X190.115 Y162.199 E59.28225
G1 X190.303 Y162.293 E59.28443
G1 X190.810 Y162.581 E59.29050
G1 X191.343 Y162.920 E59.29707
G1 X191.848 Y163.278 E59.30350
G1 X192.326 Y163.655 E59.30983
G0 F10500 X192.552 Y163.388
;TYPE:WALL-OUTER
G1 F3120 X193.033 Y163.809 E59.31648
G1 X193.499 Y164.261 E59.32323
G1 X193.935 Y164.729 E59.32988
G1 X194.340 Y165.213 E59.33644
G1 X194.729 Y165.728 E59.34315
G1 X195.081 Y166.245 E59.34966
G1 X195.413 Y166.792 E59.35631
G1 X195.707 Y167.336 E59.36274
G1 X195.980 Y167.905 E59.36930
G1 X196.215 Y168.466 E59.37563
G1 X196.423 Y169.038 E59.38196
G1 X196.600 Y169.615 E59.38823
G1 X196.750 Y170.200 E59.39451
G1 X196.868 Y170.767 E59.40053
G1 X196.963 Y171.372 E59.40690
G1 X197.028 Y171.975 E59.41321
G1 X197.064 Y172.567 E59.41937
G1 X197.072 Y173.015 E59.42403
G1 X197.042 Y173.850 E59.43272
G1 X196.994 Y174.426 E59.43873
G1 X196.913 Y175.012 E59.44488
G1 X196.804 Y175.602 E59.45112
G1 X196.656 Y176.210 E59.45763
G1 X196.490 Y176.786 E59.46386
G1 X196.209 Y177.584 E59.47266
G1 X195.962 Y178.168 E59.47925
G1 X195.683 Y178.746 E59.48593
G1 X195.283 Y179.472 E59.49454
G1 X194.939 Y180.013 E59.50121
G1 X194.571 Y180.532 E59.50783
G1 X194.181 Y181.026 E59.51437
G1 X193.760 Y181.507 E59.52102
G1 X193.308 Y181.973 E59.52777
G1 X192.842 Y182.408 E59.53440
G1 X192.356 Y182.814 E59.54098
G1 X191.841 Y183.203 E59.54769
G1 X191.324 Y183.555 E59.55420
G1 X190.777 Y183.887 E59.56085
G1 X190.229 Y184.183 E59.56733
G1 X189.666 Y184.452 E59.57381
G1 X189.097 Y184.691 E59.58023
G1 X188.526 Y184.898 E59.58655
G1 X187.954 Y185.074 E59.59277
G1 X187.369 Y185.224 E59.59905
G1 X186.802 Y185.342 E59.60507
G1 X186.192 Y185.438 E59.61149
G1 X185.594 Y185.502 E59.61775
G1 X184.995 Y185.538 E59.62399
G1 X184.550 Y185.546 E59.62861
G1 X183.735 Y185.517 E59.63709
G1 X183.138 Y185.467 E59.64332
G1 X182.557 Y185.387 E59.64942
G1 X181.961 Y185.276 E59.65573
G1 X181.352 Y185.128 E59.66224
G1 X180.781 Y184.963 E59.66842
G1 X179.978 Y184.680 E59.67728
G1 X179.401 Y184.436 E59.68379
G1 X178.821 Y184.156 E59.69049
G1 X178.097 Y183.757 E59.69908
G1 X177.555 Y183.413 E59.70576
G1 X177.037 Y183.045 E59.71236
G1 X176.543 Y182.655 E59.71891
G1 X176.062 Y182.234 E59.72556
G1 X175.596 Y181.782 E59.73231
G1 X175.166 Y181.319 E59.73888
G1 X174.749 Y180.823 E59.74561
G1 X174.366 Y180.316 E59.75222
G1 X174.014 Y179.798 E59.75873
G1 X173.682 Y179.251 E59.76539
G1 X173.383 Y178.700 E59.77191
G1 X173.115 Y178.139 E59.77837
G1 X172.877 Y177.570 E59.78478
G1 X172.669 Y176.996 E59.79113
G1 X172.495 Y176.428 E59.79731
G1 X172.345 Y175.843 E59.80359
G1 X172.227 Y175.276 E59.80961
G1 X172.131 Y174.663 E59.81606
G1 X172.065 Y174.059 E59.82238
G1 X172.031 Y173.469 E59.82853
G1 X172.022 Y173.027 E59.83312
G1 X172.052 Y172.208 E59.84164
G1 X172.101 Y171.617 E59.84781
G1 X172.182 Y171.031 E59.85396
G1 X172.291 Y170.441 E59.86020
G1 X172.438 Y169.834 E59.86669
G1 X172.605 Y169.257 E59.87294
G1 X172.886 Y168.459 E59.88174
G1 X173.133 Y167.875 E59.88833
G1 X173.409 Y167.302 E59.89494
G1 X173.715 Y166.742 E59.90158
G1 X174.045 Y166.204 E59.90814
G1 X174.398 Y165.687 E59.91465
G1 X174.785 Y165.181 E59.92128
G1 X175.198 Y164.693 E59.92792
G1 X175.642 Y164.220 E59.93467
G1 X176.096 Y163.782 E59.94123
G1 X176.579 Y163.363 E59.94788
G1 X177.088 Y162.965 E59.95460
G1 X177.608 Y162.599 E59.96121
G1 X178.135 Y162.267 E59.96768
G1 X178.690 Y161.955 E59.97430
G1 X179.248 Y161.677 E59.98079
G1 X179.814 Y161.429 E59.98721
G1 X180.364 Y161.219 E59.99333
G1 X180.957 Y161.023 E59.99983
G1 X181.517 Y160.873 E60.00586
G1 X182.110 Y160.738 E60.01218
G1 X182.908 Y160.604 E60.02059
G1 X183.501 Y160.540 E60.02680
G1 X184.100 Y160.505 E60.03304
G1 X184.544 Y160.496 E60.03765
G1 X185.360 Y160.525 E60.04614
G1 X185.956 Y160.576 E60.05236
G1 X186.538 Y160.656 E60.05847
G1 X187.134 Y160.766 E60.06477
G1 X187.735 Y160.912 E60.07120
G1 X188.321 Y161.082 E60.07755
G1 X189.117 Y161.363 E60.08633
G1 X189.694 Y161.607 E60.09284
G1 X190.272 Y161.886 E60.09951
G1 X190.998 Y162.286 E60.10813
G1 X191.539 Y162.630 E60.11480
G1 X192.058 Y162.998 E60.12142
G1 X192.552 Y163.388 E60.12796
G0 F10500 X192.072 Y164.062
;TYPE:SKIN
G1 F4920 X175.590 Y180.544 E60.37033
G0 F10500 X175.818 Y180.810
G1 F4920 X192.335 Y164.293 E60.61322
G0 F10500 X192.593 Y164.530
G1 F4920 X176.056 Y181.067 E60.85639
G0 F10500 X176.300 Y181.318
G1 F4920 X192.844 Y164.774 E61.09968
G0 F10500 X193.086 Y165.028
G1 F4920 X176.551 Y181.562 E61.34282
G0 F10500 X176.812 Y181.796
G1 F4920 X193.324 Y165.284 E61.58563
G0 F10500 X193.549 Y165.554
G1 F4920 X177.076 Y182.027 E61.82787
G0 F10500 X177.352 Y182.246
G1 F4920 X193.771 Y165.827 E62.06931
G0 F10500 X193.984 Y166.109
G1 F4920 X177.633 Y182.460 E62.30976
G0 F10500 X177.923 Y182.665
G1 F4920 X194.189 Y166.399 E62.54895
G0 F10500 X194.389 Y166.694
G1 F4920 X178.222 Y182.862 E62.78670
G0 F10500 X178.524 Y183.054
G1 F4920 X194.576 Y167.002 E63.02275
G0 F10500 X194.759 Y167.314
G1 F4920 X178.844 Y183.229 E63.25678
G0 F10500 X179.163 Y183.405
G1 F4920 X194.932 Y167.636 E63.48866
G0 F10500 X195.095 Y167.968
G1 F4920 X179.496 Y183.567 E63.71805
G0 F10500 X179.834 Y183.724
G1 F4920 X195.254 Y168.304 E63.94480
G0 F10500 X195.399 Y168.654
G1 F4920 X180.180 Y183.873 E64.16860
G0 F10500 X180.541 Y184.007
G1 F4920 X195.536 Y169.012 E64.38911
G0 F10500 X195.664 Y169.378
G1 F4920 X180.907 Y184.136 E64.60612
G0 F10500 X181.286 Y184.252
G1 F4920 X195.782 Y169.756 E64.81928
G0 F10500 X195.886 Y170.147
G1 F4920 X181.674 Y184.359 E65.02827
G0 F10500 X182.072 Y184.456
G1 F4920 X195.981 Y170.547 E65.23281
G0 F10500 X196.064 Y170.959
G1 F4920 X182.487 Y184.536 E65.43246
G0 F10500 X182.913 Y184.605
G1 F4920 X196.132 Y171.386 E65.62685
G0 F10500 X196.183 Y171.829
G1 F4920 X183.354 Y184.658 E65.81550
G0 F10500 X183.813 Y184.695
G1 F4920 X196.222 Y172.286 E65.99798
G0 F10500 X196.242 Y172.761
G1 F4920 X184.290 Y184.713 E66.17373
G0 F10500 X184.779 Y184.718
G1 F4920 X196.239 Y173.259 E66.34225
G0 F10500 X196.220 Y173.772
G1 F4920 X185.297 Y184.696 E66.50288
G0 F10500 X185.839 Y184.648
G1 F4920 X196.176 Y174.311 E66.65488
G0 F10500 X196.097 Y174.885
G1 F4920 X186.413 Y184.570 E66.79730
G0 F10500 X187.023 Y184.455
G1 F4920 X195.981 Y175.496 E66.92903
G0 F10500 X195.812 Y176.161
G1 F4920 X187.678 Y184.294 E67.04864
G0 F10500 X188.400 Y184.067
G1 F4920 X195.581 Y176.887 E67.15423
G0 F10500 X195.266 Y177.696
G1 F4920 X189.214 Y183.748 E67.24322
G0 F10500 X190.189 Y183.269
G1 F4920 X194.781 Y178.676 E67.31076
G0 F10500 X191.797 Y163.841
G1 F4920 X175.366 Y180.272 E67.55238
G0 F10500 X175.153 Y179.991
G1 F4920 X191.519 Y163.625 E67.79304
G0 F10500 X191.229 Y163.420
G1 F4920 X174.945 Y179.703 E68.03249
G0 F10500 X174.745 Y179.409
G1 F4920 X190.933 Y163.220 E68.27055
G0 F10500 X190.631 Y163.027
G1 F4920 X174.556 Y179.103 E68.50694
G0 F10500 X174.370 Y178.794
G1 F4920 X190.315 Y162.848 E68.74142
G0 F10500 X189.996 Y162.673
G1 F4920 X174.197 Y178.472 E68.97375
G0 F10500 X174.030 Y178.144
G1 F4920 X189.666 Y162.507 E69.20369
G0 F10500 X189.332 Y162.347
G1 F4920 X173.870 Y177.809 E69.43106
G0 F10500 X173.724 Y177.460
G1 F4920 X188.984 Y162.199 E69.65547
G0 F10500 X188.627 Y162.061
G1 F4920 X173.585 Y177.104 E69.87667
G0 F10500 X173.453 Y176.741
G1 F4920 X188.262 Y161.932 E70.09444
G0 F10500 X187.887 Y161.812
G1 F4920 X173.335 Y176.363 E70.30842
G0 F10500 X173.229 Y175.975
G1 F4920 X187.502 Y161.701 E70.51831
G0 F10500 X187.104 Y161.605
G1 F4920 X173.131 Y175.578 E70.72379
G0 F10500 X173.046 Y175.168
G1 F4920 X186.693 Y161.520 E70.92448
G0 F10500 X186.270 Y161.449
G1 F4920 X172.975 Y174.743 E71.11998
G0 F10500 X172.920 Y174.304
G1 F4920 X185.833 Y161.391 E71.30986
G0 F10500 X185.377 Y161.352
G1 F4920 X172.878 Y173.851 E71.49366
G0 F10500 X172.852 Y173.382
G1 F4920 X184.903 Y161.331 E71.67088
G0 F10500 X184.419 Y161.320
G1 F4920 X172.850 Y172.889 E71.84100
G0 F10500 X172.868 Y172.376
G1 F4920 X183.904 Y161.340 E72.00329
G0 F10500 X183.368 Y161.381
G1 F4920 X172.908 Y171.841 E72.15710
G0 F10500 X172.979 Y171.275
G1 F4920 X182.799 Y161.455 E72.30151
G0 F10500 X182.198 Y161.561
G1 F4920 X173.083 Y170.676 E72.43554
G0 F10500 X173.239 Y170.025
G1 F4920 X181.548 Y161.716 E72.55773
G0 F10500 X180.841 Y161.928
G1 F4920 X173.456 Y169.313 E72.66633
G0 F10500 X173.751 Y168.523
G1 F4920 X180.051 Y162.223 E72.75897
G0 F10500 X179.121 Y162.658
G1 F4920 X174.189 Y167.590 E72.83150
G0 F10500 X174.959 Y166.325
G1 F4920 X177.852 Y163.432 E72.87404
G0 F10500 X193.895 Y180.057
G1 F4920 X191.604 Y182.348 E72.90773
;LAYER:4
M106 S232
G0 F10500 X191.916 Y182.269 Z1.140
;TYPE:WALL-INNER
G1 F3180 X191.426 Y182.640 E72.91412
G1 X190.949 Y182.964 E72.92011
G1 X190.436 Y183.276 E72.92636
G1 X189.899 Y183.566 E72.93270
G1 X189.391 Y183.809 E72.93856
G1 X188.840 Y184.040 E72.94477
G1 X187.766 Y184.400 E72.95655
G1 X187.214 Y184.541 E72.96247
G1 X186.656 Y184.657 E72.96840
G1 X186.113 Y184.742 E72.97411
G1 X185.520 Y184.806 E72.98032
G1 X184.985 Y184.838 E72.98589
G1 X184.547 Y184.846 E72.99044
G1 X183.747 Y184.815 E72.99877
G1 X183.155 Y184.764 E73.00495
G1 X182.638 Y184.691 E73.01038
G1 X182.063 Y184.581 E73.01646
G1 X181.392 Y184.413 E73.02366
G1 X180.286 Y184.047 E73.03577
G1 X179.721 Y183.811 E73.04214
G1 X179.193 Y183.560 E73.04822
G1 X178.661 Y183.273 E73.05450
G1 X178.153 Y182.964 E73.06068
G1 X177.464 Y182.490 E73.06938
G1 X176.990 Y182.116 E73.07566
G1 X176.527 Y181.710 E73.08206
G1 X176.097 Y181.293 E73.08829
G1 X175.695 Y180.861 E73.09443
G1 X175.293 Y180.382 E73.10093
G1 X174.936 Y179.910 E73.10708
G1 X174.605 Y179.423 E73.11320
G1 X174.289 Y178.903 E73.11953
G1 X174.005 Y178.380 E73.12572
G1 X173.756 Y177.858 E73.13173
G1 X173.528 Y177.311 E73.13790
G1 X173.169 Y176.240 E73.14964
G1 X173.028 Y175.688 E73.15557
G1 X172.911 Y175.125 E73.16154
G1 X172.827 Y174.589 E73.16719
G1 X172.764 Y174.011 E73.17323
G1 X172.730 Y173.428 E73.17930
G1 X172.722 Y173.021 E73.18354
G1 X172.753 Y172.227 E73.19180
G1 X172.806 Y171.620 E73.19814
G1 X172.878 Y171.113 E73.20346
G1 X172.988 Y170.537 E73.20956
G1 X173.156 Y169.866 E73.21675
G1 X173.289 Y169.419 E73.22160
G1 X173.524 Y168.753 E73.22894
G1 X173.752 Y168.208 E73.23509
G1 X174.013 Y167.660 E73.24140
G1 X174.296 Y167.135 E73.24760
G1 X174.605 Y166.627 E73.25378
G1 X175.081 Y165.935 E73.26252
G1 X175.453 Y165.464 E73.26876
G1 X175.859 Y165.001 E73.27516
G1 X176.267 Y164.580 E73.28126
G1 X176.727 Y164.152 E73.28779
G1 X177.176 Y163.775 E73.29388
G1 X177.659 Y163.410 E73.30018
G1 X178.146 Y163.079 E73.30630
G1 X178.666 Y162.763 E73.31263
G1 X179.189 Y162.479 E73.31882
G1 X179.711 Y162.230 E73.32483
G1 X180.247 Y162.006 E73.33087
G1 X180.684 Y161.847 E73.33571
G1 X181.329 Y161.643 E73.34274
G1 X181.881 Y161.502 E73.34867
G1 X182.434 Y161.387 E73.35454
G1 X182.989 Y161.299 E73.36038
G1 X183.555 Y161.238 E73.36630
G1 X184.132 Y161.204 E73.37231
G1 X184.548 Y161.196 E73.37664
G1 X185.347 Y161.227 E73.38495
G1 X185.938 Y161.279 E73.39112
G1 X186.467 Y161.354 E73.39668
G1 X187.038 Y161.462 E73.40272
G1 X187.686 Y161.625 E73.40967
G1 X188.809 Y161.996 E73.42197
G1 X189.374 Y162.232 E73.42833
G1 X189.902 Y162.483 E73.43441
G1 X190.425 Y162.765 E73.44059
G1 X190.951 Y163.085 E73.44699
G1 X191.427 Y163.409 E73.45298
G1 X191.913 Y163.776 E73.45931
G1 X192.394 Y164.179 E73.46584
G1 X192.989 Y164.741 E73.47435
G1 X193.407 Y165.190 E73.48073
G1 X193.795 Y165.653 E73.48701
G1 X194.166 Y166.143 E73.49340
G1 X194.484 Y166.610 E73.49927
G1 X194.802 Y167.133 E73.50564
G1 X195.084 Y167.655 E73.51181
G1 X195.349 Y168.208 E73.51818
G1 X195.563 Y168.721 E73.52396
G1 X195.722 Y169.158 E73.52880
G1 X195.926 Y169.803 E73.53583
G1 X196.066 Y170.351 E73.54171
G1 X196.184 Y170.918 E73.54774
G1 X196.267 Y171.447 E73.55330
G1 X196.333 Y172.059 E73.55970
G1 X196.364 Y172.579 E73.56512
G1 X196.372 Y173.014 E73.56964
G1 X196.370 Y173.253 E73.57213
G1 X196.317 Y174.164 E73.58162
G1 X196.248 Y174.728 E73.58753
G1 X196.153 Y175.292 E73.59347
G1 X196.033 Y175.830 E73.59921
G1 X195.807 Y176.623 E73.60778
G1 X195.573 Y177.283 E73.61506
G1 X195.342 Y177.837 E73.62130
G1 X195.091 Y178.366 E73.62739
G1 X194.804 Y178.899 E73.63368
G1 X194.484 Y179.425 E73.64009
G1 X194.160 Y179.901 E73.64607
G1 X193.793 Y180.387 E73.65241
G1 X193.391 Y180.866 E73.65891
G1 X192.828 Y181.463 E73.66744
G1 X192.379 Y181.881 E73.67382
G1 X191.916 Y182.269 E73.68010
G0 F10500 X192.141 Y182.537
G1 F3180 X191.630 Y182.924 E73.68677
G1 X191.138 Y183.259 E73.69296
G1 X190.613 Y183.578 E73.69934
G1 X190.067 Y183.872 E73.70579
G1 X189.520 Y184.134 E73.71210
G1 X188.965 Y184.367 E73.71836
G1 X187.853 Y184.739 E73.73055
G1 X187.287 Y184.884 E73.73663
G1 X186.740 Y184.997 E73.74243
G1 X186.141 Y185.091 E73.74874
G1 X185.558 Y185.154 E73.75484
G1 X184.988 Y185.188 E73.76077
G1 X184.558 Y185.196 E73.76524
G1 X183.703 Y185.163 E73.77414
G1 X183.131 Y185.113 E73.78011
G1 X182.563 Y185.033 E73.78608
G1 X181.984 Y184.923 E73.79220
G1 X181.297 Y184.750 E73.79957
G1 X180.161 Y184.374 E73.81201
G1 X179.583 Y184.133 E73.81853
G1 X179.025 Y183.867 E73.82495
G1 X178.492 Y183.580 E73.83125
G1 X177.959 Y183.256 E73.83773
G1 X177.247 Y182.765 E73.84673
G1 X176.769 Y182.388 E73.85306
G1 X176.301 Y181.978 E73.85953
G1 X175.840 Y181.531 E73.86620
G1 X175.428 Y181.087 E73.87250
G1 X175.017 Y180.598 E73.87914
G1 X174.652 Y180.114 E73.88545
G1 X174.308 Y179.608 E73.89181
G1 X173.991 Y179.087 E73.89815
G1 X173.695 Y178.541 E73.90461
G1 X173.431 Y177.988 E73.91098
G1 X173.205 Y177.447 E73.91708
G1 X173.045 Y177.006 E73.92196
G1 X172.830 Y176.327 E73.92936
G1 X172.684 Y175.756 E73.93549
G1 X172.572 Y175.214 E73.94124
G1 X172.477 Y174.609 E73.94761
G1 X172.413 Y174.021 E73.95376
G1 X172.381 Y173.463 E73.95957
G1 X172.372 Y173.030 E73.96408
G1 X172.406 Y172.172 E73.97301
G1 X172.456 Y171.605 E73.97892
G1 X172.534 Y171.047 E73.98478
G1 X172.646 Y170.458 E73.99102
G1 X172.820 Y169.766 E73.99844
G1 X172.951 Y169.324 E74.00323
G1 X173.192 Y168.642 E74.01075
G1 X173.439 Y168.049 E74.01743
G1 X173.705 Y167.492 E74.02385
G1 X173.989 Y166.966 E74.03007
G1 X174.310 Y166.438 E74.03649
G1 X174.804 Y165.721 E74.04554
G1 X175.177 Y165.248 E74.05181
G1 X175.591 Y164.775 E74.05834
G1 X176.038 Y164.314 E74.06502
G1 X176.494 Y163.890 E74.07150
G1 X176.956 Y163.502 E74.07777
G1 X177.455 Y163.126 E74.08427
G1 X177.961 Y162.782 E74.09063
G1 X178.482 Y162.465 E74.09697
G1 X179.028 Y162.169 E74.10343
G1 X179.581 Y161.905 E74.10980
G1 X180.122 Y161.679 E74.11590
G1 X180.563 Y161.519 E74.12077
G1 X181.242 Y161.304 E74.12818
G1 X181.808 Y161.159 E74.13425
G1 X182.352 Y161.046 E74.14003
G1 X182.957 Y160.951 E74.14640
G1 X183.536 Y160.888 E74.15246
G1 X184.106 Y160.855 E74.15839
G1 X184.537 Y160.846 E74.16288
G1 X185.391 Y160.879 E74.17176
G1 X185.961 Y160.929 E74.17771
G1 X186.538 Y161.011 E74.18377
G1 X187.104 Y161.118 E74.18976
G1 X187.802 Y161.294 E74.19725
G1 X188.934 Y161.669 E74.20965
G1 X189.512 Y161.910 E74.21616
G1 X190.070 Y162.176 E74.22259
G1 X190.593 Y162.458 E74.22876
G1 X191.139 Y162.790 E74.23541
G1 X191.627 Y163.121 E74.24154
G1 X192.133 Y163.504 E74.24814
G1 X192.619 Y163.911 E74.25473
G1 X192.789 Y164.060 E74.25708
G1 X193.255 Y164.512 E74.26383
G1 X193.665 Y164.953 E74.27009
G1 X194.067 Y165.433 E74.27660
G1 X194.450 Y165.939 E74.28320
G1 X194.783 Y166.428 E74.28935
G1 X195.104 Y166.956 E74.29578
G1 X195.403 Y167.510 E74.30232
G1 X195.661 Y168.047 E74.30852
G1 X195.890 Y168.596 E74.31470
G1 X196.050 Y169.037 E74.31958
G1 X196.265 Y169.716 E74.32699
G1 X196.411 Y170.287 E74.33312
G1 X196.522 Y170.821 E74.33879
G1 X196.618 Y171.434 E74.34524
G1 X196.681 Y172.021 E74.35138
G1 X196.714 Y172.573 E74.35713
G1 X196.722 Y173.017 E74.36175
G1 X196.720 Y173.256 E74.36423
G1 X196.664 Y174.213 E74.37420
G1 X196.597 Y174.763 E74.37996
G1 X196.501 Y175.334 E74.38598
G1 X196.370 Y175.925 E74.39228
G1 X196.138 Y176.736 E74.40105
G1 X195.903 Y177.401 E74.40838
G1 X195.659 Y177.986 E74.41497
G1 X195.399 Y178.533 E74.42127
G1 X195.111 Y179.067 E74.42758
G1 X194.779 Y179.613 E74.43422
G1 X194.448 Y180.101 E74.44035
G1 X194.072 Y180.598 E74.44683
G1 X193.658 Y181.093 E74.45354
G1 X193.060 Y181.726 E74.46260
G1 X192.616 Y182.139 E74.46890
G1 X192.141 Y182.537 E74.47535
G0 F10500 X192.356 Y182.814
;TYPE:WALL-OUTER
G1 F2400 X191.841 Y183.203 E74.48206
G1 X191.324 Y183.555 E74.48856
G1 X190.777 Y183.887 E74.49522
G1 X190.229 Y184.183 E74.50169
G1 X189.666 Y184.452 E74.50818
G1 X189.097 Y184.691 E74.51460
G1 X187.951 Y185.075 E74.52716
G1 X187.369 Y185.224 E74.53341
G1 X186.802 Y185.342 E74.53943
G1 X186.192 Y185.438 E74.54585
G1 X185.594 Y185.502 E74.55211
G1 X184.995 Y185.538 E74.55835
G1 X184.551 Y185.546 E74.56296
G1 X183.685 Y185.513 E74.57198
G1 X183.090 Y185.461 E74.57819
G1 X182.508 Y185.379 E74.58430
G1 X181.918 Y185.267 E74.59054
G1 X181.207 Y185.088 E74.59817
G1 X180.725 Y184.945 E74.60339
G1 X180.033 Y184.700 E74.61103
G1 X179.441 Y184.453 E74.61770
G1 X178.869 Y184.181 E74.62428
G1 X178.320 Y183.884 E74.63077
G1 X177.773 Y183.552 E74.63743
G1 X177.037 Y183.045 E74.64672
G1 X176.543 Y182.655 E74.65326
G1 X176.062 Y182.234 E74.65991
G1 X175.596 Y181.782 E74.66666
G1 X175.165 Y181.318 E74.67325
G1 X174.749 Y180.823 E74.67997
G1 X174.366 Y180.316 E74.68658
G1 X174.012 Y179.795 E74.69313
G1 X173.682 Y179.251 E74.69974
G1 X173.383 Y178.700 E74.70626
G1 X173.115 Y178.139 E74.71273
G1 X172.877 Y177.570 E74.71914
G1 X172.492 Y176.418 E74.73177
G1 X172.345 Y175.843 E74.73794
G1 X172.227 Y175.276 E74.74396
G1 X172.131 Y174.663 E74.75041
G1 X172.065 Y174.059 E74.75673
G1 X172.031 Y173.469 E74.76288
G1 X172.022 Y173.028 E74.76746
G1 X172.056 Y172.158 E74.77652
G1 X172.107 Y171.568 E74.78267
G1 X172.190 Y170.982 E74.78883
G1 X172.302 Y170.394 E74.79505
G1 X172.479 Y169.688 E74.80262
G1 X172.624 Y169.199 E74.80792
G1 X172.869 Y168.507 E74.81556
G1 X173.116 Y167.914 E74.82224
G1 X173.385 Y167.349 E74.82874
G1 X173.685 Y166.794 E74.83530
G1 X174.015 Y166.250 E74.84192
G1 X174.156 Y166.029 E74.84465
G1 X174.524 Y165.511 E74.85125
G1 X174.914 Y165.017 E74.85780
G1 X175.335 Y164.536 E74.86444
G1 X175.787 Y164.070 E74.87120
G1 X176.255 Y163.634 E74.87785
G1 X176.738 Y163.229 E74.88440
G1 X177.246 Y162.845 E74.89102
G1 X177.771 Y162.488 E74.89762
G1 X178.318 Y162.156 E74.90428
G1 X178.869 Y161.857 E74.91080
G1 X179.430 Y161.589 E74.91726
G1 X179.992 Y161.354 E74.92359
G1 X181.144 Y160.968 E74.93623
G1 X181.726 Y160.819 E74.94247
G1 X182.293 Y160.701 E74.94850
G1 X182.903 Y160.604 E74.95492
G1 X183.501 Y160.540 E74.96117
G1 X184.100 Y160.505 E74.96741
G1 X184.543 Y160.496 E74.97202
G1 X185.410 Y160.529 E74.98104
G1 X186.002 Y160.581 E74.98722
G1 X186.587 Y160.664 E74.99336
G1 X187.175 Y160.775 E74.99959
G1 X187.888 Y160.955 E75.00723
G1 X188.370 Y161.098 E75.01246
G1 X189.062 Y161.343 E75.02009
G1 X189.654 Y161.590 E75.02676
G1 X190.220 Y161.859 E75.03328
G1 X190.775 Y162.159 E75.03984
G1 X191.321 Y162.491 E75.04648
G1 X191.838 Y162.842 E75.05298
G1 X192.353 Y163.232 E75.05970
G1 X192.840 Y163.639 E75.06630
G1 X193.033 Y163.809 E75.06897
G1 X193.499 Y164.261 E75.07572
G1 X193.935 Y164.729 E75.08237
G1 X194.340 Y165.213 E75.08894
G1 X194.729 Y165.728 E75.09565
G1 X195.081 Y166.245 E75.10215
G1 X195.413 Y166.792 E75.10880
G1 X195.707 Y167.336 E75.11523
G1 X195.980 Y167.905 E75.12180
G1 X196.215 Y168.466 E75.12812
G1 X196.600 Y169.615 E75.14072
G1 X196.750 Y170.200 E75.14700
G1 X196.868 Y170.767 E75.15302
G1 X196.963 Y171.372 E75.15939
G1 X197.028 Y171.975 E75.16570
G1 X197.064 Y172.567 E75.17186
G1 X197.072 Y173.020 E75.17658
G1 X197.070 Y173.262 E75.17909
G1 X197.013 Y174.237 E75.18925
G1 X196.942 Y174.821 E75.19536
G1 X196.843 Y175.410 E75.20158
G1 X196.710 Y176.010 E75.20797
G1 X196.474 Y176.836 E75.21690
G1 X196.226 Y177.536 E75.22462
G1 X195.979 Y178.128 E75.23129
G1 X195.710 Y178.694 E75.23781
G1 X195.410 Y179.249 E75.24437
G1 X195.078 Y179.795 E75.25101
G1 X194.727 Y180.312 E75.25751
G1 X194.337 Y180.827 E75.26423
G1 X193.930 Y181.314 E75.27083
G1 X193.760 Y181.507 E75.27350
G1 X193.308 Y181.973 E75.28025
G1 X192.842 Y182.408 E75.28688
G1 X192.356 Y182.814 E75.29346
G0 F10500 X191.688 Y182.284
;TYPE:FILL
G1 F4020 X175.281 Y165.876 E75.53474
G0 F10500 X175.729 Y165.335
G1 F4020 X192.234 Y181.840 E75.77745
G0 F10500 X192.750 Y181.366
G1 F4020 X176.204 Y164.820 E76.02076
G0 F10500 X176.710 Y164.335
G1 F4020 X193.231 Y180.857 E76.26371
G0 F10500 X193.686 Y180.322
G1 F4020 X177.244 Y163.879 E76.50550
G0 F10500 X177.811 Y163.456
G1 F4020 X194.110 Y179.755 E76.74518
G0 F10500 X194.502 Y179.158
G1 F4020 X178.408 Y163.064 E76.98184
G0 F10500 X179.036 Y162.702
G1 F4020 X194.863 Y178.528 E77.21458
G0 F10500 X195.191 Y177.867
G1 F4020 X179.697 Y162.373 E77.44242
G0 F10500 X174.870 Y166.455
G1 F4020 X191.115 Y182.700 E77.68130
G0 F10500 X190.510 Y183.085
G1 F4020 X174.484 Y167.060 E77.91696
G0 F10500 X174.131 Y167.696
G1 F4020 X189.873 Y183.438 E78.14845
G0 F10500 X189.199 Y183.754
G1 F4020 X173.816 Y168.371 E78.37466
G0 F10500 X173.536 Y169.081
G1 F4020 X188.484 Y184.029 E78.59447
G0 F10500 X187.742 Y184.277
G1 F4020 X173.294 Y169.830 E78.80692
G0 F10500 X173.095 Y170.620
G1 F4020 X186.945 Y184.470 E79.01059
G0 F10500 X186.104 Y184.619
G1 F4020 X172.950 Y171.465 E79.20402
G0 F10500 X172.869 Y172.374
G1 F4020 X185.196 Y184.701 E79.38529
G0 F10500 X184.214 Y184.709
G1 F4020 X172.850 Y173.345 E79.55240
G0 F10500 X172.930 Y174.415
G1 F4020 X183.154 Y184.639 E79.70275
G0 F10500 X181.950 Y184.425
G1 F4020 X173.137 Y175.612 E79.83235
G0 F10500 X173.562 Y177.027
G1 F4020 X180.534 Y183.999 E79.93487
G0 F10500 X178.690 Y183.144
G1 F4020 X174.410 Y178.865 E79.99780
G0 F10500 X180.396 Y162.082
G1 F4020 X195.483 Y177.169 E80.21966
G0 F10500 X195.734 Y176.430
G1 F4020 X181.136 Y161.832 E80.43432
G0 F10500 X181.914 Y161.620
G1 F4020 X195.945 Y175.651 E80.64065
G0 F10500 X196.106 Y174.822
G1 F4020 X182.746 Y161.462 E80.83711
G0 F10500 X183.631 Y161.357
G1 F4020 X196.207 Y173.933 E81.02204
G0 F10500 X196.248 Y172.984
G1 F4020 X184.585 Y161.321 E81.19355
G0 F10500 X185.628 Y161.375
G1 F4020 X196.196 Y171.942 E81.34895
G0 F10500 X196.030 Y170.786
G1 F4020 X186.782 Y161.539 E81.48493
G0 F10500 X188.137 Y161.904
G1 F4020 X195.685 Y169.451 E81.59592
G0 F10500 X195.009 Y167.785
G1 F4020 X189.789 Y162.565 E81.67268
G0 F10500 X189.620 Y162.644
;TYPE:SKIN
G1 F4020 X189.028 Y162.299 E81.67710
G1 X188.242 Y162.009 E81.68046
G1 X187.527 Y161.789 E81.68355
G1 X186.874 Y161.631 E81.68638
G1 X186.277 Y161.528 E81.68899
G1 X185.708 Y161.454 E81.69158
G1 X185.171 Y161.413 E81.69390
G1 X184.662 Y161.399 E81.69601
G1 X184.171 Y161.402 E81.69811
G1 X183.700 Y161.426 E81.70013
G1 X183.248 Y161.469 E81.70205
G1 X182.812 Y161.528 E81.70403
G1 X182.390 Y161.601 E81.70597
G1 X181.977 Y161.684 E81.70785
G1 X181.580 Y161.781 E81.70960
G1 X181.193 Y161.889 E81.71135
G1 X180.820 Y162.011 E81.71302
G1 X180.454 Y162.140 E81.71469
G1 X180.218 Y162.151 E81.71715
G0 F10500 X190.319 Y162.848
G1 F4020 X190.747 Y163.275 E81.72344
G0 F10500 X191.848 Y163.882
G1 F4020 X193.709 Y165.743 E81.75080
G0 F10500 X194.298 Y166.826
G1 F4020 X194.728 Y167.256 E81.75713
G0 F10500 X194.922 Y167.946
G1 F4020 X195.274 Y168.545 E81.76171
G1 X195.569 Y169.336 E81.76535
G1 X195.784 Y170.046 E81.76859
G1 X195.936 Y170.691 E81.77144
G1 X196.040 Y171.291 E81.77406
G1 X196.112 Y171.859 E81.77656
G1 X196.155 Y172.396 E81.77888
G1 X196.171 Y172.908 E81.78109
G1 X196.166 Y173.398 E81.78323
G1 X196.137 Y173.864 E81.78519
G1 X196.099 Y174.320 E81.78718
G1 X196.040 Y174.756 E81.78911
G1 X195.968 Y175.179 E81.79095
G1 X195.884 Y175.590 E81.79277
G1 X195.786 Y175.987 E81.79452
G1 X195.673 Y176.369 E81.79619
G1 X195.557 Y176.749 E81.79794
G1 X195.425 Y177.110 E81.79954
G1 X195.284 Y177.465 E81.80116
G1 X195.136 Y177.811 E81.80278
G1 X194.976 Y178.147 E81.80434
G1 X194.810 Y178.476 E81.80593
G1 X194.634 Y178.794 E81.80747
G1 X194.448 Y179.104 E81.80899
G1 X194.309 Y179.459 E81.81055
G1 X194.004 Y179.650 E81.81206
G1 X193.899 Y180.040 E81.81358
G1 X193.581 Y180.217 E81.81508
G1 X193.461 Y180.591 E81.81657
G1 X193.126 Y180.752 E81.81810
G1 X192.991 Y181.111 E81.81957
G1 X192.642 Y181.258 E81.82109
G1 X192.493 Y181.604 E81.82261
G1 X192.129 Y181.735 E81.82411
G1 X191.965 Y182.065 E81.82563
G1 X191.585 Y182.181 E81.82715
G1 X191.405 Y182.495 E81.82866
G1 X191.010 Y182.595 E81.83019
G1 X190.815 Y182.896 E81.83172
G1 X190.456 Y183.032 E81.83327
G1 X190.140 Y183.210 E81.83485
G1 X189.816 Y183.381 E81.83643
G1 X189.483 Y183.544 E81.83804
G1 X189.142 Y183.697 E81.83968
G1 X188.790 Y183.841 E81.84133
G1 X188.427 Y183.972 E81.84298
G1 X188.060 Y184.100 E81.84452
G1 X187.679 Y184.215 E81.84617
G1 X187.288 Y184.318 E81.84792
G1 X186.882 Y184.408 E81.84973
G1 X186.466 Y184.487 E81.85153
G1 X186.035 Y184.550 E81.85339
G1 X185.588 Y184.598 E81.85534
G1 X185.126 Y184.631 E81.85738
G1 X184.644 Y184.644 E81.85950
G1 X184.139 Y184.634 E81.86168
G1 X183.614 Y184.604 E81.86393
G1 X183.063 Y184.548 E81.86633
G1 X182.473 Y184.453 E81.86903
G1 X181.849 Y184.324 E81.87177
G1 X181.162 Y184.131 E81.87470
G1 X180.419 Y183.884 E81.87770
G1 X179.550 Y183.509 E81.88169
G1 X178.875 Y183.082 E81.89000
G0 F10500 X178.020 Y182.722
G1 F4020 X177.364 Y182.066 E81.89964
G0 F10500 X175.492 Y180.194
G1 F4020 X174.825 Y179.527 E81.90945
G0 F10500 X174.484 Y178.691
G1 F4020 X174.048 Y178.007 E81.91487
G1 X173.681 Y177.146 E81.91890
G1 X173.430 Y176.400 E81.92211
G1 X173.241 Y175.716 E81.92510
G1 X173.109 Y175.089 E81.92790
G1 X173.019 Y174.503 E81.93051
G1 X172.960 Y173.950 E81.93299
G1 X172.930 Y173.425 E81.93530
G1 X172.925 Y172.925 E81.93751
G1 X172.944 Y172.449 E81.93963
G1 X172.969 Y171.979 E81.94176
G1 X173.020 Y171.535 E81.94374
G1 X173.081 Y171.102 E81.94576
G1 X173.159 Y170.684 E81.94762
G1 X173.250 Y170.280 E81.94939
G1 X173.354 Y169.889 E81.95110
G1 X173.468 Y169.508 E81.95278
G1 X173.592 Y169.138 E81.95444
G1 X173.725 Y168.775 E81.95609
G1 X173.871 Y168.427 E81.95767
G1 X174.024 Y168.084 E81.95929
G1 X174.186 Y167.751 E81.96086
G1 X174.359 Y167.429 E81.96238
G1 X174.536 Y167.112 E81.96398
G1 X174.725 Y166.806 E81.96551
G1 X174.869 Y166.455 E81.96703
G1 X175.176 Y166.266 E81.96853
G1 X175.281 Y165.876 E81.97010
G1 X175.607 Y165.707 E81.97165
G1 X175.728 Y165.334 E81.97319
G1 X176.067 Y165.178 E81.97470
G1 X176.204 Y164.820 E81.97623
G1 X176.557 Y164.678 E81.97776
G1 X176.710 Y164.336 E81.97925
G1 X177.078 Y164.208 E81.98079
G1 X177.246 Y163.882 E81.98229
G1 X177.628 Y163.768 E81.98381
G1 X177.812 Y163.458 E81.98530
G1 X178.211 Y163.362 E81.98682
G1 X178.408 Y163.063 E81.98836
G1 X178.771 Y162.932 E81.98990
G1 X179.090 Y162.756 E81.99149
G1 X179.418 Y162.589 E81.99309
G1 X179.753 Y162.430 E81.99468
G1 X179.981 Y162.409 E81.99706
;LAYER:5
M106 S237
G0 F10500 X179.988 Y162.116 Z1.350
;TYPE:WALL-INNER
G1 F3000 X180.776 Y161.814 E82.00584
G1 X181.328 Y161.644 E82.01185
G1 X181.866 Y161.506 E82.01762
G1 X182.438 Y161.386 E82.02370
G1 X182.989 Y161.299 E82.02950
G1 X183.555 Y161.238 E82.03542
G1 X184.132 Y161.205 E82.04143
G1 X184.556 Y161.196 E82.04584
G1 X185.415 Y161.231 E82.05478
G1 X185.959 Y161.281 E82.06046
G1 X186.536 Y161.365 E82.06652
G1 X187.071 Y161.468 E82.07218
G1 X187.646 Y161.614 E82.07835
G1 X188.199 Y161.779 E82.08435
G1 X188.772 Y161.982 E82.09067
G1 X189.325 Y162.209 E82.09689
G1 X189.853 Y162.458 E82.10296
G1 X190.392 Y162.746 E82.10932
G1 X190.898 Y163.051 E82.11546
G1 X191.390 Y163.383 E82.12163
G1 X191.876 Y163.747 E82.12794
G1 X192.341 Y164.134 E82.13423
G1 X192.782 Y164.540 E82.14047
G1 X193.202 Y164.969 E82.14671
G1 X193.607 Y165.428 E82.15308
G1 X193.975 Y165.892 E82.15923
G1 X194.324 Y166.378 E82.16545
G1 X194.654 Y166.890 E82.17179
G1 X194.950 Y167.409 E82.17800
G1 X195.215 Y167.927 E82.18405
G1 X195.453 Y168.462 E82.19014
G1 X195.572 Y168.745 E82.19333
G1 X195.755 Y169.250 E82.19892
G1 X195.925 Y169.802 E82.20492
G1 X196.067 Y170.355 E82.21086
G1 X196.184 Y170.918 E82.21684
G1 X196.267 Y171.447 E82.22241
G1 X196.333 Y172.059 E82.22881
G1 X196.363 Y172.569 E82.23412
G1 X196.372 Y173.015 E82.23876
G1 X196.370 Y173.299 E82.24171
G1 X196.316 Y174.165 E82.25073
G1 X196.248 Y174.728 E82.25663
G1 X196.153 Y175.292 E82.26258
G1 X196.035 Y175.825 E82.26825
G1 X195.789 Y176.676 E82.27747
G1 X195.587 Y177.246 E82.28375
G1 X195.360 Y177.799 E82.28997
G1 X195.111 Y178.327 E82.29604
G1 X194.823 Y178.866 E82.30239
G1 X194.518 Y179.372 E82.30854
G1 X194.186 Y179.864 E82.31471
G1 X193.822 Y180.350 E82.32102
G1 X193.435 Y180.815 E82.32731
G1 X193.029 Y181.256 E82.33355
G1 X192.600 Y181.676 E82.33979
G1 X192.141 Y182.081 E82.34615
G1 X191.677 Y182.449 E82.35231
G1 X191.191 Y182.798 E82.35853
G1 X190.679 Y183.128 E82.36487
G1 X190.169 Y183.419 E82.37097
G1 X189.648 Y183.684 E82.37705
G1 X189.088 Y183.935 E82.38343
G1 X188.319 Y184.229 E82.39199
G1 X187.767 Y184.399 E82.39800
G1 X187.214 Y184.541 E82.40393
G1 X186.656 Y184.657 E82.40986
G1 X186.113 Y184.742 E82.41558
G1 X185.520 Y184.806 E82.42178
G1 X184.985 Y184.838 E82.42735
G1 X184.540 Y184.846 E82.43198
G1 X183.698 Y184.811 E82.44074
G1 X183.119 Y184.760 E82.44679
G1 X182.565 Y184.679 E82.45261
G1 X182.021 Y184.573 E82.45837
G1 X181.441 Y184.426 E82.46459
G1 X180.900 Y184.266 E82.47046
G1 X180.323 Y184.061 E82.47682
G1 X179.770 Y183.834 E82.48304
G1 X179.242 Y183.585 E82.48911
G1 X178.709 Y183.300 E82.49540
G1 X178.200 Y182.993 E82.50158
G1 X177.696 Y182.654 E82.50789
G1 X177.219 Y182.296 E82.51409
G1 X176.754 Y181.909 E82.52038
G1 X176.313 Y181.503 E82.52662
G1 X175.893 Y181.074 E82.53286
G1 X175.485 Y180.612 E82.53927
G1 X175.118 Y180.150 E82.54540
G1 X174.769 Y179.661 E82.55165
G1 X174.437 Y179.146 E82.55802
G1 X174.152 Y178.649 E82.56398
G1 X173.877 Y178.108 E82.57029
G1 X173.642 Y177.581 E82.57629
G1 X173.523 Y177.298 E82.57948
G1 X173.340 Y176.793 E82.58507
G1 X173.170 Y176.241 E82.59107
G1 X173.028 Y175.688 E82.59701
G1 X172.911 Y175.125 E82.60299
G1 X172.827 Y174.589 E82.60863
G1 X172.764 Y174.011 E82.61468
G1 X172.730 Y173.428 E82.62075
G1 X172.722 Y173.014 E82.62505
G1 X172.757 Y172.178 E82.63375
G1 X172.809 Y171.593 E82.63986
G1 X172.890 Y171.039 E82.64568
G1 X172.997 Y170.486 E82.65154
G1 X173.136 Y169.937 E82.65743
G1 X173.305 Y169.370 E82.66358
G1 X173.513 Y168.782 E82.67007
G1 X173.732 Y168.250 E82.67605
G1 X173.988 Y167.708 E82.68228
G1 X174.265 Y167.190 E82.68839
G1 X174.576 Y166.674 E82.69465
G1 X174.915 Y166.170 E82.70097
G1 X175.273 Y165.693 E82.70717
G1 X175.660 Y165.228 E82.71346
G1 X176.066 Y164.787 E82.71969
G1 X176.495 Y164.367 E82.72594
G1 X176.957 Y163.959 E82.73235
G1 X177.412 Y163.597 E82.73839
G1 X177.908 Y163.243 E82.74473
G1 X178.423 Y162.911 E82.75110
G1 X178.920 Y162.626 E82.75706
G1 X179.461 Y162.351 E82.76337
G1 X179.988 Y162.116 E82.76937
G0 F10500 X179.853 Y161.793
G1 F3000 X180.136 Y161.674 E82.77256
G1 X180.657 Y161.485 E82.77832
G1 X181.242 Y161.304 E82.78469
G1 X181.797 Y161.162 E82.79065
G1 X182.352 Y161.046 E82.79654
G1 X182.957 Y160.951 E82.80291
G1 X183.536 Y160.888 E82.80897
G1 X184.106 Y160.855 E82.81490
G1 X184.547 Y160.846 E82.81949
G1 X185.439 Y160.883 E82.82877
G1 X186.024 Y160.936 E82.83488
G1 X186.570 Y161.016 E82.84062
G1 X187.159 Y161.129 E82.84686
G1 X187.746 Y161.279 E82.85315
G1 X188.305 Y161.445 E82.85922
G1 X188.879 Y161.648 E82.86555
G1 X189.467 Y161.890 E82.87216
G1 X190.026 Y162.154 E82.87859
G1 X190.549 Y162.433 E82.88475
G1 X191.085 Y162.756 E82.89126
G1 X191.602 Y163.104 E82.89774
G1 X192.081 Y163.463 E82.90396
G1 X192.579 Y163.877 E82.91070
G1 X193.036 Y164.299 E82.91717
G1 X193.457 Y164.730 E82.92343
G1 X193.870 Y165.197 E82.92991
G1 X194.256 Y165.684 E82.93638
G1 X194.626 Y166.199 E82.94297
G1 X194.944 Y166.692 E82.94907
G1 X195.248 Y167.224 E82.95544
G1 X195.536 Y167.788 E82.96203
G1 X195.776 Y168.327 E82.96816
G1 X195.895 Y168.610 E82.97135
G1 X196.084 Y169.131 E82.97712
G1 X196.265 Y169.716 E82.98348
G1 X196.411 Y170.287 E82.98961
G1 X196.522 Y170.821 E82.99528
G1 X196.618 Y171.434 E83.00173
G1 X196.680 Y172.010 E83.00776
G1 X196.713 Y172.562 E83.01351
G1 X196.722 Y173.018 E83.01825
G1 X196.720 Y173.304 E83.02122
G1 X196.664 Y174.214 E83.03070
G1 X196.597 Y174.763 E83.03646
G1 X196.501 Y175.334 E83.04248
G1 X196.371 Y175.920 E83.04872
G1 X196.121 Y176.789 E83.05812
G1 X195.921 Y177.353 E83.06434
G1 X195.679 Y177.941 E83.07095
G1 X195.415 Y178.500 E83.07738
G1 X195.136 Y179.023 E83.08355
G1 X194.813 Y179.559 E83.09005
G1 X194.465 Y180.076 E83.09653
G1 X194.106 Y180.555 E83.10276
G1 X193.696 Y181.048 E83.10943
G1 X193.274 Y181.506 E83.11590
G1 X192.839 Y181.931 E83.12222
G1 X192.372 Y182.344 E83.12871
G1 X191.885 Y182.730 E83.13517
G1 X191.370 Y183.100 E83.14176
G1 X190.871 Y183.422 E83.14794
G1 X190.337 Y183.727 E83.15433
G1 X189.793 Y184.003 E83.16067
G1 X189.242 Y184.250 E83.16695
G1 X188.959 Y184.369 E83.17015
G1 X188.438 Y184.558 E83.17591
G1 X187.853 Y184.739 E83.18228
G1 X187.287 Y184.884 E83.18835
G1 X186.740 Y184.997 E83.19416
G1 X186.141 Y185.091 E83.20046
G1 X185.558 Y185.154 E83.20656
G1 X184.989 Y185.188 E83.21249
G1 X184.548 Y185.196 E83.21707
G1 X183.654 Y185.159 E83.22638
G1 X183.072 Y185.107 E83.23245
G1 X182.516 Y185.026 E83.23830
G1 X181.950 Y184.916 E83.24429
G1 X181.343 Y184.762 E83.25080
G1 X180.795 Y184.600 E83.25675
G1 X180.214 Y184.394 E83.26316
G1 X179.628 Y184.153 E83.26974
G1 X179.069 Y183.889 E83.27617
G1 X178.543 Y183.608 E83.28237
G1 X177.998 Y183.280 E83.28899
G1 X177.507 Y182.949 E83.29514
G1 X177.011 Y182.577 E83.30159
G1 X176.516 Y182.166 E83.30828
G1 X176.059 Y181.744 E83.31475
G1 X175.638 Y181.313 E83.32101
G1 X175.225 Y180.845 E83.32750
G1 X174.838 Y180.359 E83.33396
G1 X174.469 Y179.844 E83.34055
G1 X174.143 Y179.339 E83.34680
G1 X173.845 Y178.817 E83.35305
G1 X173.559 Y178.256 E83.35960
G1 X173.319 Y177.716 E83.36574
G1 X173.200 Y177.433 E83.36894
G1 X173.011 Y176.912 E83.37470
G1 X172.830 Y176.327 E83.38107
G1 X172.684 Y175.756 E83.38720
G1 X172.572 Y175.214 E83.39295
G1 X172.477 Y174.609 E83.39932
G1 X172.413 Y174.021 E83.40547
